;1001
;Printer name: M3D Micro
;TIME:892
;Print time: 14m:52s
;Extruder 1 material used: 619.076mm
;Extruder 1 material name: 
;Extruder 1 filament diameter: 1.75mm
;Extruder 1 nozzle diameter: 0.4mm
;Extruder 1 offset x: 0mm
;Extruder 1 offset y: 0mm
;Extruder 1 offset z: 0mm
;Extruder 1 max temp: 200
;Extruder 2 material used: 0mm
;Extruder 2 material name: 
;Extruder 2 filament diameter: 1.75mm
;Extruder 2 nozzle diameter: 0.4mm
;Extruder 2 offset x: 0mm
;Extruder 2 offset y: 0mm
;Extruder 2 offset z: 0mm
;Extruder 2 max temp: 0
;Bed temp: 55
;Layer count: 13
;Width: 109mm
;Depth: 109mm
;Height: 116mm
;Center x: 54.5mm
;Center y: 54.5mm
;Center z: 0mm
;Count of bodies: 1
;Fusion version: 2701.1.27
G21
;--------------------------------
;Selected Profile: PLA Direct Drive
;--------------------------------
;Selected Printer: M3D, Micro
;--------------------------------
T0
M140 S55
M104 S200 T0
M190 S55
M109 S200 T0
G90
M83
G28 Z
G28 X Y
G92 E0
G1 X10 Y10 F12000
G1 Z10
G0 X10 Y10 Z10 F3000
G92 E0
;--------------------------------
;Part 1
;LAYER_COUNT:13
;LAYER:1
M107
M104 S210 T0
M109 S210 T0
;rapid-leaky
G0 X23.086 Y32.398 Z0.2 F3000
G1 F2100 E0.5
;bead-skirt/brim
G1 X23.69 Y31.851 F960 E0.027
G1 X24.332 Y31.355 E0.027
G1 X25.002 Y30.909 E0.027
G1 X25.71 Y30.511 E0.027
G1 X26.443 Y30.169 E0.027
G1 X27.199 Y29.881 E0.027
G1 X27.987 Y29.647 E0.027
G1 X28.816 Y29.471 E0.028
G1 X29.569 Y29.365 E0.026
G1 X30.379 Y29.311 E0.027
G1 X31.188 Y29.318 E0.026
G1 X31.992 Y29.384 E0.027
G1 X32.794 Y29.511 E0.027
G1 X33.585 Y29.697 E0.027
G1 X34.398 Y29.955 E0.029
G1 X35.11 Y30.241 E0.025
G1 X35.835 Y30.594 E0.027
G1 X36.534 Y31.003 E0.027
G1 X37.24 Y31.488 E0.028
G1 X37.732 Y31.887 E0.021
G1 X37.799 Y31.538 E0.012
G1 X38.022 Y30.641 E0.031
G1 X38.294 Y29.754 E0.031
G1 X38.614 Y28.884 E0.031
G1 X38.978 Y28.036 E0.03
G1 X39.39 Y27.204 E0.031
G1 X39.847 Y26.397 E0.031
G1 X40.345 Y25.618 E0.031
G1 X40.886 Y24.866 E0.031
G1 X41.466 Y24.144 E0.031
G1 X42.084 Y23.455 E0.03
G1 X42.74 Y22.799 E0.031
G1 X43.429 Y22.181 E0.031
G1 X44.151 Y21.601 E0.031
G1 X44.903 Y21.06 E0.031
G1 X45.688 Y20.559 E0.031
G1 X46.543 Y20.079 E0.032
G1 X47.321 Y19.693 E0.029
G1 X48.17 Y19.329 E0.031
G1 X49.039 Y19.009 E0.031
G1 X49.926 Y18.737 E0.03
G1 X50.822 Y18.514 E0.031
G1 X51.733 Y18.339 E0.031
G1 X52.653 Y18.214 E0.031
G1 X53.58 Y18.139 E0.031
G1 X54.561 Y18.115 E0.032
G1 X55.427 Y18.139 E0.029
G1 X56.347 Y18.214 E0.031
G1 X57.267 Y18.339 E0.031
G1 X58.178 Y18.514 E0.031
G1 X59.074 Y18.737 E0.03
G1 X59.961 Y19.009 E0.031
G1 X60.83 Y19.329 E0.031
G1 X61.68 Y19.693 E0.031
G1 X62.512 Y20.106 E0.031
G1 X63.318 Y20.562 E0.03
G1 X64.097 Y21.06 E0.031
G1 X64.849 Y21.601 E0.031
G1 X65.571 Y22.181 E0.031
G1 X66.26 Y22.799 E0.031
G1 X66.916 Y23.455 E0.03
G1 X67.534 Y24.144 E0.031
G1 X68.119 Y24.871 E0.031
G1 X68.687 Y25.669 E0.033
G1 X69.153 Y26.398 E0.029
G1 X69.609 Y27.204 E0.03
G1 X70.022 Y28.036 E0.031
G1 X70.389 Y28.89 E0.031
G1 X70.725 Y29.812 E0.033
G1 X70.978 Y30.642 E0.029
G1 X71.201 Y31.538 E0.03
G1 X71.268 Y31.887 E0.012
G1 X71.756 Y31.491 E0.021
G1 X72.425 Y31.029 E0.027
G1 X73.161 Y30.596 E0.029
G1 X73.89 Y30.241 E0.027
G1 X74.602 Y29.955 E0.025
G1 X75.415 Y29.697 E0.029
G1 X76.206 Y29.511 E0.027
G1 X77.003 Y29.385 E0.026
G1 X77.763 Y29.321 E0.026
G1 X78.616 Y29.31 E0.028
G1 X79.432 Y29.365 E0.027
G1 X80.232 Y29.478 E0.027
G1 X81.017 Y29.649 E0.027
G1 X81.755 Y29.866 E0.025
G1 X82.55 Y30.166 E0.029
G1 X83.288 Y30.51 E0.027
G1 X83.998 Y30.909 E0.027
G1 X84.668 Y31.355 E0.027
G1 X85.31 Y31.851 E0.027
G1 X85.913 Y32.397 E0.027
G1 X86.435 Y32.944 E0.025
G1 X86.979 Y33.597 E0.028
G1 X87.449 Y34.265 E0.027
G1 X87.841 Y34.918 E0.026
G1 X88.227 Y35.679 E0.028
G1 X88.538 Y36.435 E0.027
G1 X88.789 Y37.199 E0.027
G1 X88.973 Y37.937 E0.025
G1 X89.12 Y38.778 E0.029
G1 X89.196 Y39.593 E0.027
G1 X89.213 Y40.397 E0.027
G1 X89.17 Y41.209 E0.027
G1 X89.065 Y42.013 E0.027
G1 X88.903 Y42.806 E0.027
G1 X88.682 Y43.582 E0.026
G1 X88.404 Y44.344 E0.027
G1 X88.068 Y45.083 E0.027
G1 X87.705 Y45.75 E0.026
G1 X87.285 Y46.405 E0.026
G1 X73.482 Y66.118 E0.8
G1 X70.544 E0.098
G1 X70.394 Y66.526 E0.014
G1 X70.031 Y67.373 E0.031
G1 X69.649 Y68.146 E0.028
G1 X69.173 Y69.001 E0.033
G1 X68.673 Y69.785 E0.031
G1 X68.136 Y70.537 E0.031
G1 X67.557 Y71.259 E0.03
G1 X67.137 Y71.729 E0.021
G1 X67.864 Y71.811 E0.025
G1 X68.62 Y71.958 E0.025
G1 X69.436 Y72.18 E0.028
G1 X70.197 Y72.454 E0.027
G1 X70.925 Y72.78 E0.027
G1 X71.587 Y73.136 E0.025
G1 X72.258 Y73.562 E0.026
G1 X72.907 Y74.047 E0.027
G1 X73.518 Y74.582 E0.027
G1 X74.109 Y75.186 E0.028
G1 X74.597 Y75.769 E0.026
G1 X75.064 Y76.416 E0.026
G1 X75.484 Y77.102 E0.027
G1 X75.851 Y77.819 E0.027
G1 X76.163 Y78.563 E0.027
G1 X76.43 Y79.371 E0.028
G1 X76.623 Y80.159 E0.027
G1 X76.754 Y80.953 E0.027
G1 X76.826 Y81.748 E0.026
G1 X76.837 Y82.501 E0.025
G1 X76.792 Y83.295 E0.027
G1 X76.685 Y84.097 E0.027
G1 X76.516 Y84.887 E0.026
G1 X76.291 Y85.654 E0.027
G1 X76.004 Y86.415 E0.027
G1 X75.643 Y87.179 E0.028
G1 X75.272 Y87.836 E0.025
G1 X74.827 Y88.504 E0.027
G1 X74.329 Y89.139 E0.027
G1 X73.789 Y89.729 E0.026
G1 X73.205 Y90.28 E0.027
G1 X72.57 Y90.792 E0.027
G1 X71.875 Y91.267 E0.028
G1 X71.218 Y91.649 E0.026
G1 X70.499 Y91.997 E0.026
G1 X69.744 Y92.296 E0.027
G1 X68.932 Y92.542 E0.028
G1 X68.198 Y92.708 E0.025
G1 X67.396 Y92.829 E0.027
G1 X66.55 Y92.886 E0.029
G1 X65.796 Y92.882 E0.025
G1 X64.993 Y92.818 E0.026
G1 X64.201 Y92.694 E0.027
G1 X63.418 Y92.51 E0.027
G1 X62.653 Y92.267 E0.027
G1 X61.91 Y91.969 E0.026
G1 X61.185 Y91.611 E0.027
G1 X60.493 Y91.201 E0.027
G1 X59.877 Y90.77 E0.025
G1 X59.22 Y90.239 E0.028
G1 X58.632 Y89.677 E0.027
G1 X58.126 Y89.115 E0.025
G1 X57.608 Y88.45 E0.028
G1 X57.16 Y87.769 E0.027
G1 X56.772 Y87.066 E0.027
G1 X56.459 Y86.384 E0.025
G1 X56.161 Y85.592 E0.028
G1 X55.938 Y84.81 E0.027
G1 X55.777 Y84.023 E0.027
G1 X55.676 Y83.229 E0.026
G1 X55.636 Y82.468 E0.026
G1 X55.655 Y81.626 E0.028
G1 X55.736 Y80.817 E0.027
G1 X55.879 Y80.027 E0.027
G1 X56.066 Y79.297 E0.025
G1 X56.336 Y78.494 E0.028
G1 X56.654 Y77.753 E0.027
G1 X56.976 Y77.131 E0.023
G1 X56.345 Y77.217 E0.021
G1 X55.422 Y77.292 E0.031
G1 X54.5 Y77.316 E0.031
G1 X53.578 Y77.292 E0.03
G1 X52.655 Y77.217 E0.031
G1 X52.023 Y77.131 E0.021
G1 X52.348 Y77.756 E0.024
G1 X52.68 Y78.54 E0.028
G1 X52.935 Y79.3 E0.027
G1 X53.124 Y80.038 E0.025
G1 X53.269 Y80.867 E0.028
G1 X53.344 Y81.62 E0.025
G1 X53.366 Y82.418 E0.027
G1 X53.325 Y83.225 E0.027
G1 X53.223 Y84.023 E0.026
G1 X53.062 Y84.81 E0.027
G1 X52.839 Y85.592 E0.027
G1 X52.541 Y86.384 E0.028
G1 X52.228 Y87.066 E0.025
G1 X51.84 Y87.769 E0.027
G1 X51.392 Y88.45 E0.027
G1 X50.874 Y89.115 E0.028
G1 X50.368 Y89.677 E0.025
G1 X49.78 Y90.239 E0.027
G1 X49.123 Y90.77 E0.028
G1 X48.507 Y91.201 E0.025
G1 X47.815 Y91.611 E0.027
G1 X47.09 Y91.969 E0.027
G1 X46.347 Y92.267 E0.027
G1 X45.582 Y92.51 E0.026
G1 X44.798 Y92.694 E0.027
G1 X44.007 Y92.818 E0.027
G1 X43.253 Y92.879 E0.025
G1 X42.411 Y92.886 E0.028
G1 X41.595 Y92.828 E0.027
G1 X40.802 Y92.708 E0.027
G1 X40.068 Y92.542 E0.025
G1 X39.256 Y92.296 E0.028
G1 X38.501 Y91.997 E0.027
G1 X37.824 Y91.669 E0.025
G1 X37.092 Y91.248 E0.028
G1 X36.426 Y90.789 E0.027
G1 X35.833 Y90.312 E0.025
G1 X35.216 Y89.735 E0.028
G1 X34.673 Y89.142 E0.027
G1 X34.202 Y88.543 E0.026
G1 X33.731 Y87.841 E0.028
G1 X33.333 Y87.136 E0.027
G1 X32.992 Y86.406 E0.026
G1 X32.709 Y85.654 E0.027
G1 X32.484 Y84.887 E0.027
G1 X32.315 Y84.097 E0.027
G1 X32.208 Y83.295 E0.027
G1 X32.163 Y82.496 E0.026
G1 X32.177 Y81.693 E0.027
G1 X32.254 Y80.892 E0.027
G1 X32.388 Y80.106 E0.026
G1 X32.572 Y79.366 E0.025
G1 X32.837 Y78.563 E0.029
G1 X33.147 Y77.824 E0.026
G1 X33.492 Y77.146 E0.026
G1 X33.93 Y76.424 E0.028
G1 X34.376 Y75.803 E0.025
G1 X34.92 Y75.153 E0.028
G1 X35.487 Y74.578 E0.027
G1 X36.088 Y74.051 E0.027
G1 X36.696 Y73.594 E0.025
G1 X37.366 Y73.164 E0.026
G1 X38.07 Y72.783 E0.027
G1 X38.807 Y72.452 E0.027
G1 X39.612 Y72.165 E0.028
G1 X40.396 Y71.954 E0.027
G1 X41.187 Y71.804 E0.027
G1 X41.863 Y71.729 E0.023
G1 X41.443 Y71.259 E0.021
G1 X40.864 Y70.537 E0.031
G1 X40.327 Y69.785 E0.03
G1 X39.827 Y69.001 E0.031
G1 X39.351 Y68.146 E0.033
G1 X38.969 Y67.373 E0.028
G1 X38.606 Y66.526 E0.031
G1 X38.431 Y66.05 E0.017
G1 X36.006 Y66.815 E0.085
G1 X21.719 Y46.412 E0.828
G1 X21.319 Y45.792 E0.025
G1 X20.932 Y45.084 E0.026
G1 X20.596 Y44.344 E0.027
G1 X20.318 Y43.582 E0.027
G1 X20.097 Y42.806 E0.027
G1 X19.935 Y42.014 E0.027
G1 X19.83 Y41.209 E0.027
G1 X19.787 Y40.397 E0.027
G1 X19.804 Y39.593 E0.027
G1 X19.879 Y38.786 E0.027
G1 X20.016 Y37.985 E0.027
G1 X20.211 Y37.201 E0.027
G1 X20.462 Y36.434 E0.027
G1 X20.773 Y35.679 E0.027
G1 X21.159 Y34.918 E0.028
G1 X21.551 Y34.265 E0.025
G1 X22.017 Y33.603 E0.027
G1 X22.533 Y32.979 E0.027
G1 X23.086 Y32.398 E0.027
;rapid-leaky
G0 X23.365 Y32.685 F3000
;bead-skirt/brim
G1 X23.947 Y32.158 F960 E0.026
G1 X24.566 Y31.68 E0.026
G1 X25.211 Y31.251 E0.026
G1 X25.893 Y30.867 E0.026
G1 X26.599 Y30.538 E0.026
G1 X27.328 Y30.26 E0.026
G1 X28.085 Y30.035 E0.026
G1 X28.886 Y29.865 E0.027
G1 X29.611 Y29.763 E0.025
G1 X30.39 Y29.711 E0.026
G1 X31.17 Y29.718 E0.026
G1 X31.945 Y29.782 E0.025
G1 X32.717 Y29.903 E0.026
G1 X33.479 Y30.083 E0.026
G1 X34.263 Y30.331 E0.028
G1 X34.947 Y30.606 E0.024
G1 X35.646 Y30.947 E0.026
G1 X36.319 Y31.341 E0.026
G1 X37.001 Y31.809 E0.028
G1 X37.613 Y32.306 E0.026
G1 X37.997 Y32.668 E0.017
G1 X38.19 Y31.624 E0.036
G1 X38.408 Y30.748 E0.03
G1 X38.673 Y29.882 E0.03
G1 X38.986 Y29.032 E0.03
G1 X39.341 Y28.204 E0.03
G1 X39.744 Y27.392 E0.03
G1 X40.19 Y26.604 E0.03
G1 X40.677 Y25.843 E0.03
G1 X41.204 Y25.108 E0.03
G1 X41.771 Y24.403 E0.03
G1 X42.375 Y23.73 E0.031
G1 X43.015 Y23.09 E0.03
G1 X43.688 Y22.486 E0.03
G1 X44.393 Y21.919 E0.03
G1 X45.128 Y21.392 E0.03
G1 X45.894 Y20.902 E0.03
G1 X46.729 Y20.433 E0.032
G1 X47.489 Y20.056 E0.028
G1 X48.318 Y19.7 E0.03
G1 X49.167 Y19.388 E0.03
G1 X50.033 Y19.123 E0.03
G1 X50.909 Y18.905 E0.03
G1 X51.798 Y18.734 E0.031
G1 X52.696 Y18.611 E0.03
G1 X53.601 Y18.538 E0.03
G1 X54.561 Y18.515 E0.032
G1 X55.406 Y18.539 E0.028
G1 X56.304 Y18.611 E0.03
G1 X57.202 Y18.734 E0.03
G1 X58.091 Y18.905 E0.03
G1 X58.967 Y19.123 E0.03
G1 X59.833 Y19.388 E0.03
G1 X60.682 Y19.7 E0.03
G1 X61.512 Y20.056 E0.03
G1 X62.324 Y20.46 E0.031
G1 X63.111 Y20.905 E0.03
G1 X63.872 Y21.392 E0.03
G1 X64.607 Y21.919 E0.03
G1 X65.312 Y22.486 E0.03
G1 X65.985 Y23.09 E0.03
G1 X66.625 Y23.73 E0.03
G1 X67.229 Y24.403 E0.03
G1 X67.8 Y25.113 E0.03
G1 X68.356 Y25.893 E0.032
G1 X68.81 Y26.604 E0.028
G1 X69.256 Y27.392 E0.03
G1 X69.659 Y28.204 E0.031
G1 X70.017 Y29.038 E0.03
G1 X70.345 Y29.939 E0.032
G1 X70.593 Y30.749 E0.028
G1 X70.81 Y31.624 E0.03
G1 X71.003 Y32.668 E0.035
G1 X71.389 Y32.305 E0.018
G1 X71.996 Y31.812 E0.026
G1 X72.64 Y31.366 E0.026
G1 X73.35 Y30.949 E0.027
G1 X74.053 Y30.606 E0.026
G1 X74.737 Y30.331 E0.025
G1 X75.521 Y30.083 E0.027
G1 X76.283 Y29.903 E0.026
G1 X77.051 Y29.782 E0.026
G1 X77.782 Y29.721 E0.024
G1 X78.605 Y29.711 E0.028
G1 X79.391 Y29.763 E0.026
G1 X80.162 Y29.872 E0.026
G1 X80.918 Y30.037 E0.026
G1 X81.628 Y30.245 E0.024
G1 X82.394 Y30.535 E0.028
G1 X83.106 Y30.866 E0.026
G1 X83.789 Y31.251 E0.026
G1 X84.434 Y31.68 E0.025
G1 X85.053 Y32.158 E0.026
G1 X85.634 Y32.684 E0.026
G1 X86.136 Y33.21 E0.025
G1 X86.661 Y33.84 E0.027
G1 X87.113 Y34.484 E0.026
G1 X87.491 Y35.112 E0.025
G1 X87.863 Y35.846 E0.027
G1 X88.163 Y36.573 E0.026
G1 X88.404 Y37.31 E0.026
G1 X88.581 Y38.02 E0.024
G1 X88.724 Y38.831 E0.028
G1 X88.797 Y39.615 E0.026
G1 X88.813 Y40.391 E0.026
G1 X88.771 Y41.173 E0.026
G1 X88.671 Y41.947 E0.026
G1 X88.514 Y42.711 E0.026
G1 X88.301 Y43.458 E0.025
G1 X88.033 Y44.193 E0.026
G1 X87.71 Y44.904 E0.026
G1 X87.36 Y45.546 E0.025
G1 X86.953 Y46.183 E0.025
G1 X73.274 Y65.718 E0.793
G1 X70.264 E0.1
G1 X70.022 Y66.379 E0.024
G1 X69.667 Y67.206 E0.029
G1 X69.295 Y67.96 E0.028
G1 X68.829 Y68.796 E0.032
G1 X68.341 Y69.562 E0.03
G1 X67.817 Y70.296 E0.03
G1 X67.252 Y71.001 E0.031
G1 X66.652 Y71.672 E0.029
G1 X66.239 Y72.087 E0.02
G1 X66.99 Y72.115 E0.025
G1 X67.803 Y72.207 E0.027
G1 X68.529 Y72.348 E0.025
G1 X69.315 Y72.562 E0.027
G1 X70.047 Y72.825 E0.026
G1 X70.749 Y73.14 E0.025
G1 X71.385 Y73.482 E0.024
G1 X72.031 Y73.892 E0.026
G1 X72.656 Y74.358 E0.026
G1 X73.243 Y74.873 E0.026
G1 X73.812 Y75.455 E0.027
G1 X74.281 Y76.015 E0.024
G1 X74.731 Y76.638 E0.026
G1 X75.135 Y77.298 E0.025
G1 X75.488 Y77.987 E0.026
G1 X75.788 Y78.703 E0.026
G1 X76.045 Y79.481 E0.027
G1 X76.231 Y80.24 E0.026
G1 X76.357 Y81.003 E0.026
G1 X76.426 Y81.769 E0.025
G1 X76.436 Y82.493 E0.025
G1 X76.393 Y83.257 E0.025
G1 X76.291 Y84.029 E0.026
G1 X76.128 Y84.788 E0.026
G1 X75.912 Y85.527 E0.025
G1 X75.636 Y86.259 E0.026
G1 X75.287 Y86.995 E0.027
G1 X74.931 Y87.626 E0.025
G1 X74.503 Y88.269 E0.025
G1 X74.024 Y88.881 E0.026
G1 X73.504 Y89.449 E0.026
G1 X72.942 Y89.979 E0.025
G1 X72.332 Y90.471 E0.026
G1 X71.661 Y90.929 E0.027
G1 X71.03 Y91.295 E0.025
G1 X70.338 Y91.63 E0.025
G1 X69.612 Y91.918 E0.026
G1 X68.83 Y92.155 E0.027
G1 X68.124 Y92.315 E0.024
G1 X67.353 Y92.431 E0.026
G1 X66.537 Y92.485 E0.028
G1 X65.813 Y92.482 E0.024
G1 X65.04 Y92.421 E0.025
G1 X64.278 Y92.301 E0.026
G1 X63.525 Y92.124 E0.026
G1 X62.788 Y91.89 E0.026
G1 X62.073 Y91.603 E0.025
G1 X61.376 Y91.259 E0.026
G1 X60.71 Y90.865 E0.026
G1 X60.117 Y90.45 E0.024
G1 X59.485 Y89.938 E0.027
G1 X58.919 Y89.398 E0.026
G1 X58.432 Y88.858 E0.024
G1 X57.933 Y88.217 E0.027
G1 X57.502 Y87.563 E0.026
G1 X57.129 Y86.885 E0.026
G1 X56.828 Y86.229 E0.024
G1 X56.541 Y85.466 E0.027
G1 X56.327 Y84.715 E0.026
G1 X56.172 Y83.958 E0.026
G1 X56.074 Y83.193 E0.025
G1 X56.036 Y82.462 E0.025
G1 X56.055 Y81.651 E0.027
G1 X56.132 Y80.873 E0.026
G1 X56.27 Y80.113 E0.025
G1 X56.449 Y79.411 E0.025
G1 X56.71 Y78.637 E0.027
G1 X57.015 Y77.924 E0.025
G1 X57.35 Y77.279 E0.025
G1 X57.78 Y76.586 E0.027
G1 X57.196 Y76.698 E0.02
G1 X56.302 Y76.819 E0.03
G1 X55.4 Y76.892 E0.03
G1 X54.5 Y76.916 E0.03
G1 X53.6 Y76.892 E0.03
G1 X52.698 Y76.819 E0.03
G1 X51.804 Y76.698 E0.03
G1 X51.22 Y76.586 E0.019
G1 X51.626 Y77.236 E0.026
G1 X51.986 Y77.926 E0.026
G1 X52.306 Y78.682 E0.027
G1 X52.551 Y79.413 E0.026
G1 X52.732 Y80.122 E0.024
G1 X52.873 Y80.922 E0.027
G1 X52.944 Y81.645 E0.024
G1 X52.965 Y82.414 E0.026
G1 X52.926 Y83.19 E0.026
G1 X52.828 Y83.958 E0.025
G1 X52.673 Y84.715 E0.026
G1 X52.459 Y85.466 E0.026
G1 X52.172 Y86.229 E0.027
G1 X51.871 Y86.885 E0.024
G1 X51.498 Y87.563 E0.026
G1 X51.067 Y88.217 E0.026
G1 X50.568 Y88.858 E0.027
G1 X50.081 Y89.398 E0.024
G1 X49.515 Y89.938 E0.026
G1 X48.883 Y90.45 E0.027
G1 X48.29 Y90.865 E0.024
G1 X47.624 Y91.26 E0.026
G1 X46.927 Y91.603 E0.026
G1 X46.212 Y91.89 E0.026
G1 X45.475 Y92.124 E0.025
G1 X44.722 Y92.301 E0.026
G1 X43.96 Y92.421 E0.026
G1 X43.235 Y92.479 E0.024
G1 X42.423 Y92.486 E0.027
G1 X41.639 Y92.43 E0.026
G1 X40.876 Y92.315 E0.026
G1 X40.17 Y92.155 E0.024
G1 X39.388 Y91.918 E0.027
G1 X38.662 Y91.63 E0.026
G1 X38.011 Y91.315 E0.024
G1 X37.306 Y90.909 E0.027
G1 X36.665 Y90.468 E0.026
G1 X36.095 Y90.01 E0.024
G1 X35.501 Y89.454 E0.027
G1 X34.979 Y88.883 E0.026
G1 X34.526 Y88.308 E0.024
G1 X34.071 Y87.631 E0.028
G1 X33.689 Y86.953 E0.025
G1 X33.361 Y86.25 E0.026
G1 X33.089 Y85.527 E0.026
G1 X32.872 Y84.788 E0.026
G1 X32.709 Y84.029 E0.025
G1 X32.607 Y83.257 E0.026
G1 X32.563 Y82.488 E0.026
G1 X32.577 Y81.715 E0.026
G1 X32.65 Y80.945 E0.025
G1 X32.78 Y80.188 E0.026
G1 X32.956 Y79.477 E0.024
G1 X33.212 Y78.703 E0.027
G1 X33.51 Y77.992 E0.026
G1 X33.841 Y77.341 E0.024
G1 X34.264 Y76.645 E0.027
G1 X34.692 Y76.049 E0.025
G1 X35.217 Y75.423 E0.027
G1 X35.761 Y74.869 E0.026
G1 X36.34 Y74.362 E0.025
G1 X36.925 Y73.923 E0.025
G1 X37.569 Y73.509 E0.025
G1 X38.247 Y73.142 E0.026
G1 X38.957 Y72.824 E0.026
G1 X39.731 Y72.547 E0.027
G1 X40.485 Y72.344 E0.026
G1 X41.246 Y72.2 E0.026
G1 X42.007 Y72.116 E0.025
G1 X42.761 Y72.088 E0.025
G1 X42.348 Y71.672 E0.02
G1 X41.748 Y71.001 E0.03
G1 X41.183 Y70.296 E0.03
G1 X40.659 Y69.562 E0.03
G1 X40.171 Y68.796 E0.03
G1 X39.705 Y67.96 E0.032
G1 X39.333 Y67.206 E0.028
G1 X38.978 Y66.379 E0.03
G1 X38.676 Y65.553 E0.029
G1 X36.165 Y66.345 E0.088
G1 X22.051 Y46.189 E0.818
G1 X21.663 Y45.588 E0.024
G1 X21.29 Y44.905 E0.026
G1 X20.967 Y44.193 E0.026
G1 X20.699 Y43.458 E0.026
G1 X20.486 Y42.711 E0.025
G1 X20.329 Y41.948 E0.026
G1 X20.229 Y41.173 E0.026
G1 X20.187 Y40.391 E0.026
G1 X20.203 Y39.615 E0.026
G1 X20.276 Y38.839 E0.026
G1 X20.408 Y38.067 E0.026
G1 X20.595 Y37.312 E0.026
G1 X20.837 Y36.573 E0.026
G1 X21.137 Y35.846 E0.026
G1 X21.509 Y35.112 E0.027
G1 X21.887 Y34.484 E0.025
G1 X22.335 Y33.846 E0.026
G1 X22.832 Y33.244 E0.026
G1 X23.365 Y32.685 E0.025
;rapid-leaky
G0 X23.644 Y32.971 F3000
;bead-skirt/brim
G1 X24.204 Y32.465 F960 E0.026
G1 X24.799 Y32.005 E0.025
G1 X25.42 Y31.592 E0.024
G1 X26.076 Y31.223 E0.025
G1 X26.755 Y30.906 E0.025
G1 X27.456 Y30.639 E0.025
G1 X28.184 Y30.423 E0.026
G1 X28.956 Y30.259 E0.026
G1 X29.652 Y30.161 E0.023
G1 X30.402 Y30.111 E0.025
G1 X31.152 Y30.118 E0.025
G1 X31.897 Y30.179 E0.025
G1 X32.64 Y30.296 E0.025
G1 X33.372 Y30.469 E0.025
G1 X34.127 Y30.708 E0.026
G1 X34.785 Y30.972 E0.024
G1 X35.457 Y31.3 E0.025
G1 X36.105 Y31.679 E0.025
G1 X36.761 Y32.129 E0.026
G1 X37.349 Y32.607 E0.025
G1 X37.892 Y33.119 E0.025
G1 X38.289 Y33.55 E0.02
G1 X38.414 Y32.577 E0.032
G1 X38.58 Y31.71 E0.03
G1 X38.793 Y30.855 E0.029
G1 X39.052 Y30.01 E0.029
G1 X39.357 Y29.181 E0.03
G1 X39.705 Y28.372 E0.029
G1 X40.098 Y27.579 E0.03
G1 X40.533 Y26.81 E0.029
G1 X41.008 Y26.067 E0.029
G1 X41.523 Y25.35 E0.03
G1 X42.076 Y24.662 E0.029
G1 X42.665 Y24.005 E0.029
G1 X43.29 Y23.38 E0.03
G1 X43.947 Y22.791 E0.029
G1 X44.635 Y22.238 E0.029
G1 X45.352 Y21.723 E0.03
G1 X46.099 Y21.245 E0.029
G1 X46.916 Y20.786 E0.031
G1 X47.656 Y20.42 E0.028
G1 X48.466 Y20.072 E0.029
G1 X49.295 Y19.767 E0.03
G1 X50.14 Y19.508 E0.029
G1 X50.995 Y19.295 E0.029
G1 X51.862 Y19.128 E0.03
G1 X52.739 Y19.009 E0.029
G1 X53.622 Y18.938 E0.03
G1 X54.56 Y18.915 E0.031
G1 X55.384 Y18.938 E0.027
G1 X56.261 Y19.009 E0.029
G1 X57.138 Y19.128 E0.03
G1 X58.005 Y19.295 E0.029
G1 X58.86 Y19.508 E0.03
G1 X59.705 Y19.767 E0.029
G1 X60.534 Y20.072 E0.029
G1 X61.344 Y20.42 E0.03
G1 X62.137 Y20.813 E0.029
G1 X62.905 Y21.248 E0.029
G1 X63.648 Y21.723 E0.03
G1 X64.365 Y22.238 E0.029
G1 X65.053 Y22.791 E0.03
G1 X65.71 Y23.38 E0.029
G1 X66.335 Y24.005 E0.029
G1 X66.924 Y24.662 E0.03
G1 X67.481 Y25.354 E0.029
G1 X68.024 Y26.117 E0.031
G1 X68.467 Y26.81 E0.028
G1 X68.902 Y27.579 E0.029
G1 X69.295 Y28.372 E0.029
G1 X69.645 Y29.185 E0.03
G1 X69.966 Y30.066 E0.031
G1 X70.207 Y30.856 E0.028
G1 X70.42 Y31.71 E0.029
G1 X70.587 Y32.577 E0.029
G1 X70.713 Y33.55 E0.033
G1 X71.139 Y33.089 E0.021
G1 X71.652 Y32.606 E0.023
G1 X72.236 Y32.132 E0.025
G1 X72.856 Y31.704 E0.025
G1 X73.539 Y31.302 E0.027
G1 X74.215 Y30.972 E0.025
G1 X74.873 Y30.708 E0.023
G1 X75.628 Y30.469 E0.027
G1 X76.36 Y30.296 E0.025
G1 X77.099 Y30.18 E0.024
G1 X77.801 Y30.121 E0.024
G1 X78.594 Y30.111 E0.026
G1 X79.35 Y30.161 E0.025
G1 X80.091 Y30.266 E0.025
G1 X80.819 Y30.424 E0.025
G1 X81.5 Y30.625 E0.024
G1 X82.239 Y30.904 E0.026
G1 X82.923 Y31.223 E0.025
G1 X83.58 Y31.592 E0.025
G1 X84.201 Y32.005 E0.025
G1 X84.796 Y32.465 E0.025
G1 X85.354 Y32.97 E0.025
G1 X85.838 Y33.476 E0.023
G1 X86.343 Y34.084 E0.027
G1 X86.778 Y34.702 E0.025
G1 X87.141 Y35.306 E0.023
G1 X87.499 Y36.013 E0.027
G1 X87.787 Y36.712 E0.025
G1 X88.02 Y37.421 E0.024
G1 X88.19 Y38.103 E0.024
G1 X88.327 Y38.885 E0.026
G1 X88.397 Y39.638 E0.025
G1 X88.413 Y40.384 E0.025
G1 X88.373 Y41.136 E0.025
G1 X88.276 Y41.881 E0.025
G1 X88.125 Y42.616 E0.025
G1 X87.921 Y43.335 E0.025
G1 X87.663 Y44.041 E0.025
G1 X87.352 Y44.725 E0.025
G1 X87.016 Y45.342 E0.023
G1 X86.621 Y45.96 E0.025
G1 X73.066 Y65.318 E0.786
G1 X69.979 E0.102
G1 X69.65 Y66.231 E0.033
G1 X69.304 Y67.039 E0.029
G1 X68.941 Y67.774 E0.027
G1 X68.485 Y68.591 E0.031
G1 X68.01 Y69.338 E0.03
G1 X67.498 Y70.054 E0.029
G1 X66.946 Y70.742 E0.029
G1 X66.361 Y71.397 E0.03
G1 X65.783 Y71.979 E0.027
G1 X65.256 Y72.458 E0.024
G1 X65.299 Y72.537 E0.003
G1 X65.474 Y72.517 E0.005
G1 X66.216 Y72.487 E0.025
G1 X66.96 Y72.514 E0.025
G1 X67.743 Y72.602 E0.026
G1 X68.438 Y72.737 E0.024
G1 X69.195 Y72.944 E0.026
G1 X69.897 Y73.196 E0.025
G1 X70.572 Y73.499 E0.024
G1 X71.182 Y73.827 E0.023
G1 X71.804 Y74.222 E0.025
G1 X72.404 Y74.669 E0.025
G1 X72.967 Y75.163 E0.025
G1 X73.515 Y75.724 E0.026
G1 X73.966 Y76.261 E0.023
G1 X74.398 Y76.859 E0.025
G1 X74.786 Y77.494 E0.024
G1 X75.125 Y78.156 E0.025
G1 X75.413 Y78.844 E0.025
G1 X75.66 Y79.592 E0.026
G1 X75.839 Y80.32 E0.025
G1 X75.96 Y81.054 E0.025
G1 X76.026 Y81.79 E0.024
G1 X76.036 Y82.484 E0.023
G1 X75.995 Y83.22 E0.025
G1 X75.896 Y83.96 E0.025
G1 X75.74 Y84.69 E0.025
G1 X75.532 Y85.4 E0.024
G1 X75.267 Y86.102 E0.025
G1 X74.932 Y86.811 E0.026
G1 X74.59 Y87.417 E0.023
G1 X74.179 Y88.035 E0.025
G1 X73.718 Y88.622 E0.025
G1 X73.219 Y89.168 E0.024
G1 X72.679 Y89.677 E0.025
G1 X72.093 Y90.149 E0.025
G1 X71.448 Y90.59 E0.026
G1 X70.842 Y90.942 E0.023
G1 X70.177 Y91.264 E0.025
G1 X69.48 Y91.54 E0.025
G1 X68.727 Y91.768 E0.026
G1 X68.05 Y91.921 E0.023
G1 X67.309 Y92.033 E0.025
G1 X66.525 Y92.085 E0.026
G1 X65.829 Y92.082 E0.023
G1 X65.087 Y92.023 E0.025
G1 X64.355 Y91.908 E0.025
G1 X63.631 Y91.738 E0.025
G1 X62.923 Y91.513 E0.024
G1 X62.236 Y91.238 E0.025
G1 X61.566 Y90.908 E0.025
G1 X60.927 Y90.528 E0.024
G1 X60.358 Y90.131 E0.023
G1 X59.749 Y89.638 E0.027
G1 X59.206 Y89.119 E0.025
G1 X58.739 Y88.601 E0.023
G1 X58.259 Y87.984 E0.026
G1 X57.845 Y87.356 E0.025
G1 X57.487 Y86.705 E0.024
G1 X57.197 Y86.075 E0.024
G1 X56.921 Y85.341 E0.026
G1 X56.716 Y84.62 E0.025
G1 X56.566 Y83.892 E0.024
G1 X56.473 Y83.157 E0.025
G1 X56.436 Y82.456 E0.023
G1 X56.454 Y81.675 E0.026
G1 X56.529 Y80.928 E0.025
G1 X56.661 Y80.198 E0.025
G1 X56.833 Y79.524 E0.023
G1 X57.084 Y78.78 E0.026
G1 X57.377 Y78.095 E0.025
G1 X57.698 Y77.476 E0.023
G1 X58.087 Y76.844 E0.025
G1 X58.55 Y76.206 E0.026
G1 X58.677 Y76.058 E0.006
G1 X58.635 Y75.979 E0.003
G1 X57.996 Y76.137 E0.022
G1 X57.132 Y76.303 E0.03
G1 X56.259 Y76.422 E0.029
G1 X55.379 Y76.493 E0.029
G1 X54.5 Y76.516 E0.03
G1 X53.621 Y76.493 E0.029
G1 X52.741 Y76.422 E0.029
G1 X51.868 Y76.303 E0.029
G1 X51.004 Y76.137 E0.03
G1 X50.365 Y75.979 E0.022
G1 X50.323 Y76.058 E0.003
G1 X50.45 Y76.206 E0.006
G1 X50.91 Y76.84 E0.026
G1 X51.279 Y77.434 E0.023
G1 X51.624 Y78.097 E0.025
G1 X51.932 Y78.823 E0.026
G1 X52.167 Y79.527 E0.025
G1 X52.341 Y80.206 E0.023
G1 X52.476 Y80.976 E0.026
G1 X52.545 Y81.67 E0.024
G1 X52.565 Y82.409 E0.024
G1 X52.527 Y83.154 E0.025
G1 X52.434 Y83.892 E0.025
G1 X52.284 Y84.62 E0.024
G1 X52.079 Y85.341 E0.025
G1 X51.803 Y86.075 E0.027
G1 X51.513 Y86.705 E0.023
G1 X51.155 Y87.356 E0.024
G1 X50.741 Y87.984 E0.025
G1 X50.261 Y88.601 E0.026
G1 X49.794 Y89.119 E0.023
G1 X49.251 Y89.638 E0.025
G1 X48.642 Y90.131 E0.027
G1 X48.073 Y90.528 E0.023
G1 X47.434 Y90.908 E0.024
G1 X46.764 Y91.237 E0.025
G1 X46.077 Y91.513 E0.025
G1 X45.369 Y91.738 E0.024
G1 X44.645 Y91.908 E0.025
G1 X43.913 Y92.023 E0.025
G1 X43.217 Y92.079 E0.023
G1 X42.436 Y92.086 E0.026
G1 X41.683 Y92.032 E0.025
G1 X40.95 Y91.921 E0.025
G1 X40.273 Y91.768 E0.023
G1 X39.52 Y91.54 E0.026
G1 X38.823 Y91.264 E0.025
G1 X38.199 Y90.962 E0.023
G1 X37.519 Y90.57 E0.026
G1 X36.904 Y90.147 E0.025
G1 X36.358 Y89.708 E0.023
G1 X35.786 Y89.172 E0.026
G1 X35.284 Y88.624 E0.025
G1 X34.85 Y88.072 E0.023
G1 X34.412 Y87.421 E0.027
G1 X34.045 Y86.77 E0.024
G1 X33.73 Y86.095 E0.025
G1 X33.468 Y85.4 E0.025
G1 X33.26 Y84.69 E0.025
G1 X33.104 Y83.96 E0.024
G1 X33.005 Y83.22 E0.025
G1 X32.964 Y82.48 E0.025
G1 X32.976 Y81.738 E0.024
G1 X33.047 Y80.998 E0.025
G1 X33.172 Y80.27 E0.025
G1 X33.341 Y79.588 E0.023
G1 X33.587 Y78.844 E0.026
G1 X33.874 Y78.16 E0.025
G1 X34.191 Y77.535 E0.023
G1 X34.598 Y76.866 E0.026
G1 X35.009 Y76.294 E0.024
G1 X35.513 Y75.692 E0.026
G1 X36.036 Y75.16 E0.025
G1 X36.593 Y74.672 E0.024
G1 X37.153 Y74.251 E0.024
G1 X37.773 Y73.853 E0.024
G1 X38.424 Y73.5 E0.025
G1 X39.106 Y73.195 E0.025
G1 X39.85 Y72.929 E0.026
G1 X40.574 Y72.735 E0.025
G1 X41.305 Y72.596 E0.024
G1 X42.037 Y72.515 E0.025
G1 X42.732 Y72.487 E0.023
G1 X43.474 Y72.513 E0.025
G1 X43.701 Y72.538 E0.007
G1 X43.744 Y72.458 E0.003
G1 X43.217 Y71.979 E0.024
G1 X42.639 Y71.397 E0.027
G1 X42.054 Y70.742 E0.03
G1 X41.502 Y70.054 E0.029
G1 X40.99 Y69.338 E0.029
G1 X40.515 Y68.591 E0.03
G1 X40.059 Y67.774 E0.031
G1 X39.696 Y67.039 E0.027
G1 X39.35 Y66.231 E0.029
G1 X39.047 Y65.405 E0.03
G1 X38.939 Y65.051 E0.012
G1 X36.325 Y65.875 E0.091
G1 X22.383 Y45.966 E0.808
G1 X22.007 Y45.383 E0.023
G1 X21.648 Y44.726 E0.025
G1 X21.337 Y44.041 E0.025
G1 X21.079 Y43.335 E0.025
G1 X20.875 Y42.616 E0.025
G1 X20.724 Y41.881 E0.025
G1 X20.627 Y41.136 E0.025
G1 X20.587 Y40.384 E0.025
G1 X20.603 Y39.638 E0.025
G1 X20.673 Y38.891 E0.025
G1 X20.8 Y38.149 E0.025
G1 X20.98 Y37.422 E0.025
G1 X21.213 Y36.712 E0.025
G1 X21.501 Y36.013 E0.025
G1 X21.859 Y35.306 E0.026
G1 X22.222 Y34.702 E0.024
G1 X22.654 Y34.089 E0.025
G1 X23.131 Y33.51 E0.025
G1 X23.644 Y32.971 E0.024
;rapid-leaky
G0 X23.924 Y33.258 F3000
;bead-skirt/brim
G1 X24.461 Y32.772 F960 E0.025
G1 X25.032 Y32.33 E0.024
G1 X25.629 Y31.933 E0.023
G1 X26.259 Y31.579 E0.024
G1 X26.911 Y31.275 E0.024
G1 X27.584 Y31.018 E0.024
G1 X28.283 Y30.811 E0.025
G1 X29.025 Y30.653 E0.025
G1 X29.693 Y30.559 E0.022
G1 X30.413 Y30.511 E0.024
G1 X31.133 Y30.518 E0.024
G1 X31.85 Y30.577 E0.024
G1 X32.563 Y30.689 E0.024
G1 X33.266 Y30.855 E0.024
G1 X33.992 Y31.085 E0.025
G1 X34.623 Y31.338 E0.023
G1 X35.268 Y31.653 E0.024
G1 X35.89 Y32.016 E0.024
G1 X36.521 Y32.45 E0.025
G1 X37.085 Y32.908 E0.025
G1 X37.607 Y33.4 E0.023
G1 X38.065 Y33.897 E0.023
G1 X38.513 Y34.462 E0.024
G1 X38.616 Y34.614 E0.006
G1 X38.623 Y34.35 E0.009
G1 X38.7 Y33.439 E0.03
G1 X38.808 Y32.642 E0.027
G1 X38.971 Y31.796 E0.029
G1 X39.179 Y30.962 E0.028
G1 X39.431 Y30.137 E0.029
G1 X39.729 Y29.329 E0.028
G1 X40.068 Y28.54 E0.029
G1 X40.451 Y27.767 E0.029
G1 X40.876 Y27.016 E0.028
G1 X41.339 Y26.292 E0.029
G1 X41.841 Y25.592 E0.029
G1 X42.381 Y24.921 E0.028
G1 X42.956 Y24.28 E0.029
G1 X43.565 Y23.671 E0.029
G1 X44.206 Y23.096 E0.028
G1 X44.877 Y22.556 E0.029
G1 X45.577 Y22.054 E0.029
G1 X46.305 Y21.588 E0.028
G1 X47.103 Y21.14 E0.031
G1 X47.824 Y20.783 E0.026
G1 X48.615 Y20.444 E0.029
G1 X49.422 Y20.146 E0.029
G1 X50.247 Y19.894 E0.028
G1 X51.081 Y19.686 E0.029
G1 X51.927 Y19.523 E0.029
G1 X52.782 Y19.407 E0.028
G1 X53.643 Y19.338 E0.029
G1 X54.559 Y19.315 E0.031
G1 X55.362 Y19.338 E0.026
G1 X56.218 Y19.407 E0.029
G1 X57.073 Y19.523 E0.029
G1 X57.919 Y19.686 E0.028
G1 X58.753 Y19.894 E0.029
G1 X59.578 Y20.146 E0.028
G1 X60.386 Y20.444 E0.029
G1 X61.176 Y20.783 E0.029
G1 X61.949 Y21.166 E0.028
G1 X62.699 Y21.591 E0.029
G1 X63.423 Y22.054 E0.029
G1 X64.123 Y22.556 E0.028
G1 X64.794 Y23.096 E0.029
G1 X65.435 Y23.671 E0.029
G1 X66.044 Y24.28 E0.028
G1 X66.619 Y24.921 E0.029
G1 X67.162 Y25.596 E0.029
G1 X67.693 Y26.341 E0.03
G1 X68.124 Y27.017 E0.027
G1 X68.549 Y27.767 E0.028
G1 X68.932 Y28.54 E0.029
G1 X69.273 Y29.333 E0.029
G1 X69.586 Y30.193 E0.03
G1 X69.821 Y30.963 E0.027
G1 X70.029 Y31.796 E0.029
G1 X70.192 Y32.642 E0.028
G1 X70.308 Y33.497 E0.029
G1 X70.377 Y34.354 E0.029
G1 X70.384 Y34.614 E0.008
G1 X70.486 Y34.464 E0.006
G1 X70.909 Y33.927 E0.023
G1 X71.424 Y33.37 E0.025
G1 X71.916 Y32.907 E0.023
G1 X72.476 Y32.452 E0.024
G1 X73.071 Y32.041 E0.024
G1 X73.729 Y31.654 E0.025
G1 X74.377 Y31.338 E0.024
G1 X75.008 Y31.085 E0.023
G1 X75.734 Y30.855 E0.025
G1 X76.437 Y30.689 E0.024
G1 X77.147 Y30.577 E0.024
G1 X77.821 Y30.52 E0.022
G1 X78.583 Y30.511 E0.026
G1 X79.308 Y30.559 E0.024
G1 X80.02 Y30.66 E0.024
G1 X80.72 Y30.812 E0.024
G1 X81.373 Y31.004 E0.022
G1 X82.084 Y31.273 E0.026
G1 X82.74 Y31.579 E0.024
G1 X83.371 Y31.933 E0.024
G1 X83.968 Y32.33 E0.024
G1 X84.539 Y32.772 E0.024
G1 X85.075 Y33.257 E0.024
G1 X85.539 Y33.743 E0.022
G1 X86.025 Y34.327 E0.025
G1 X86.442 Y34.921 E0.024
G1 X86.791 Y35.5 E0.023
G1 X87.135 Y36.179 E0.025
G1 X87.412 Y36.851 E0.024
G1 X87.635 Y37.532 E0.024
G1 X87.798 Y38.186 E0.023
G1 X87.93 Y38.938 E0.025
G1 X87.997 Y39.661 E0.024
G1 X88.012 Y40.378 E0.024
G1 X87.974 Y41.1 E0.024
G1 X87.881 Y41.815 E0.024
G1 X87.736 Y42.521 E0.024
G1 X87.54 Y43.212 E0.024
G1 X87.292 Y43.89 E0.024
G1 X86.994 Y44.547 E0.024
G1 X86.671 Y45.138 E0.022
G1 X86.288 Y45.738 E0.024
G1 X72.858 Y64.918 E0.779
G1 X69.684 E0.105
G1 X69.573 Y65.277 E0.013
G1 X69.278 Y66.083 E0.028
G1 X68.94 Y66.871 E0.029
G1 X68.587 Y67.588 E0.027
G1 X68.142 Y68.386 E0.03
G1 X67.678 Y69.114 E0.029
G1 X67.179 Y69.813 E0.028
G1 X66.641 Y70.484 E0.029
G1 X66.07 Y71.123 E0.028
G1 X65.507 Y71.69 E0.027
G1 X64.754 Y72.366 E0.033
G1 X65.074 Y72.966 E0.023
G1 X65.505 Y72.916 E0.015
G1 X66.217 Y72.887 E0.023
G1 X66.931 Y72.913 E0.024
G1 X67.682 Y72.998 E0.025
G1 X68.347 Y73.127 E0.023
G1 X69.074 Y73.326 E0.025
G1 X69.748 Y73.568 E0.024
G1 X70.395 Y73.858 E0.023
G1 X70.98 Y74.173 E0.022
G1 X71.577 Y74.551 E0.024
G1 X72.152 Y74.98 E0.024
G1 X72.692 Y75.454 E0.024
G1 X73.218 Y75.992 E0.025
G1 X73.65 Y76.507 E0.022
G1 X74.064 Y77.081 E0.023
G1 X74.437 Y77.69 E0.024
G1 X74.762 Y78.325 E0.024
G1 X75.038 Y78.984 E0.024
G1 X75.276 Y79.703 E0.025
G1 X75.447 Y80.401 E0.024
G1 X75.563 Y81.104 E0.023
G1 X75.626 Y81.811 E0.024
G1 X75.636 Y82.476 E0.022
G1 X75.596 Y83.182 E0.024
G1 X75.502 Y83.892 E0.024
G1 X75.352 Y84.592 E0.023
G1 X75.152 Y85.273 E0.024
G1 X74.899 Y85.946 E0.024
G1 X74.576 Y86.627 E0.025
G1 X74.249 Y87.208 E0.022
G1 X73.854 Y87.8 E0.024
G1 X73.413 Y88.363 E0.024
G1 X72.934 Y88.887 E0.023
G1 X72.416 Y89.375 E0.024
G1 X71.854 Y89.828 E0.024
G1 X71.234 Y90.252 E0.025
G1 X70.654 Y90.589 E0.022
G1 X70.016 Y90.897 E0.024
G1 X69.348 Y91.162 E0.024
G1 X68.625 Y91.381 E0.025
G1 X67.976 Y91.528 E0.022
G1 X67.266 Y91.635 E0.024
G1 X66.512 Y91.685 E0.025
G1 X65.846 Y91.683 E0.022
G1 X65.134 Y91.626 E0.024
G1 X64.432 Y91.515 E0.023
G1 X63.737 Y91.352 E0.024
G1 X63.059 Y91.137 E0.024
G1 X62.4 Y90.872 E0.023
G1 X61.757 Y90.556 E0.024
G1 X61.144 Y90.192 E0.024
G1 X60.599 Y89.811 E0.022
G1 X60.014 Y89.337 E0.025
G1 X59.493 Y88.84 E0.024
G1 X59.046 Y88.344 E0.022
G1 X58.584 Y87.751 E0.025
G1 X58.188 Y87.149 E0.024
G1 X57.844 Y86.525 E0.024
G1 X57.567 Y85.921 E0.022
G1 X57.302 Y85.216 E0.025
G1 X57.105 Y84.525 E0.024
G1 X56.961 Y83.826 E0.024
G1 X56.872 Y83.122 E0.023
G1 X56.836 Y82.451 E0.023
G1 X56.854 Y81.7 E0.025
G1 X56.925 Y80.984 E0.024
G1 X57.052 Y80.283 E0.023
G1 X57.217 Y79.638 E0.022
G1 X57.458 Y78.922 E0.026
G1 X57.739 Y78.266 E0.023
G1 X58.047 Y77.673 E0.023
G1 X58.42 Y77.067 E0.023
G1 X58.864 Y76.454 E0.025
G1 X59.158 Y76.111 E0.015
G1 X58.839 Y75.511 E0.023
G1 X57.91 Y75.747 E0.032
G1 X57.067 Y75.908 E0.028
G1 X56.216 Y76.024 E0.029
G1 X55.357 Y76.093 E0.029
G1 X54.5 Y76.116 E0.028
G1 X53.643 Y76.093 E0.029
G1 X52.784 Y76.024 E0.028
G1 X51.933 Y75.908 E0.029
G1 X51.09 Y75.747 E0.029
G1 X50.161 Y75.511 E0.031
G1 X49.842 Y76.111 E0.023
G1 X50.136 Y76.454 E0.015
G1 X50.578 Y77.063 E0.025
G1 X50.931 Y77.632 E0.022
G1 X51.262 Y78.268 E0.024
G1 X51.557 Y78.965 E0.025
G1 X51.783 Y79.64 E0.024
G1 X51.95 Y80.29 E0.022
G1 X52.08 Y81.03 E0.025
G1 X52.146 Y81.696 E0.023
G1 X52.165 Y82.404 E0.023
G1 X52.129 Y83.119 E0.024
G1 X52.039 Y83.826 E0.024
G1 X51.895 Y84.525 E0.023
G1 X51.698 Y85.216 E0.024
G1 X51.433 Y85.921 E0.025
G1 X51.156 Y86.525 E0.022
G1 X50.812 Y87.149 E0.024
G1 X50.416 Y87.751 E0.024
G1 X49.954 Y88.344 E0.025
G1 X49.507 Y88.84 E0.022
G1 X48.986 Y89.337 E0.024
G1 X48.401 Y89.811 E0.025
G1 X47.856 Y90.192 E0.022
G1 X47.243 Y90.556 E0.024
G1 X46.6 Y90.872 E0.024
G1 X45.941 Y91.137 E0.024
G1 X45.263 Y91.352 E0.023
G1 X44.568 Y91.515 E0.024
G1 X43.866 Y91.626 E0.024
G1 X43.199 Y91.679 E0.022
G1 X42.448 Y91.686 E0.025
G1 X41.727 Y91.634 E0.024
G1 X41.024 Y91.528 E0.024
G1 X40.375 Y91.381 E0.022
G1 X39.652 Y91.162 E0.025
G1 X38.984 Y90.897 E0.024
G1 X38.386 Y90.608 E0.022
G1 X37.733 Y90.232 E0.025
G1 X37.143 Y89.826 E0.024
G1 X36.62 Y89.405 E0.022
G1 X36.07 Y88.891 E0.025
G1 X35.589 Y88.365 E0.024
G1 X35.173 Y87.837 E0.022
G1 X34.753 Y87.211 E0.025
G1 X34.401 Y86.587 E0.024
G1 X34.099 Y85.94 E0.024
G1 X33.848 Y85.273 E0.023
G1 X33.648 Y84.592 E0.024
G1 X33.498 Y83.892 E0.024
G1 X33.404 Y83.182 E0.024
G1 X33.364 Y82.472 E0.023
G1 X33.376 Y81.761 E0.024
G1 X33.444 Y81.051 E0.024
G1 X33.563 Y80.352 E0.023
G1 X33.726 Y79.699 E0.023
G1 X33.962 Y78.984 E0.025
G1 X34.237 Y78.328 E0.023
G1 X34.541 Y77.73 E0.023
G1 X34.932 Y77.086 E0.025
G1 X35.325 Y76.54 E0.022
G1 X35.81 Y75.961 E0.025
G1 X36.311 Y75.451 E0.024
G1 X36.845 Y74.983 E0.024
G1 X37.382 Y74.58 E0.022
G1 X37.976 Y74.198 E0.023
G1 X38.602 Y73.859 E0.024
G1 X39.255 Y73.567 E0.024
G1 X39.97 Y73.311 E0.025
G1 X40.664 Y73.125 E0.024
G1 X41.365 Y72.992 E0.024
G1 X42.067 Y72.914 E0.023
G1 X42.733 Y72.887 E0.022
G1 X43.445 Y72.912 E0.024
G1 X43.926 Y72.966 E0.016
G1 X44.246 Y72.366 E0.023
G1 X43.493 Y71.69 E0.034
G1 X42.93 Y71.123 E0.026
G1 X42.359 Y70.484 E0.029
G1 X41.821 Y69.813 E0.028
G1 X41.322 Y69.114 E0.029
G1 X40.858 Y68.386 E0.029
G1 X40.413 Y67.588 E0.03
G1 X40.06 Y66.871 E0.026
G1 X39.722 Y66.083 E0.029
G1 X39.427 Y65.277 E0.029
G1 X39.203 Y64.548 E0.025
G1 X36.484 Y65.405 E0.095
G1 X22.715 Y45.742 E0.798
G1 X22.351 Y45.178 E0.022
G1 X22.006 Y44.548 E0.024
G1 X21.708 Y43.89 E0.024
G1 X21.46 Y43.211 E0.024
G1 X21.264 Y42.521 E0.024
G1 X21.119 Y41.815 E0.024
G1 X21.026 Y41.1 E0.024
G1 X20.988 Y40.378 E0.024
G1 X21.003 Y39.661 E0.024
G1 X21.069 Y38.943 E0.024
G1 X21.191 Y38.231 E0.024
G1 X21.365 Y37.533 E0.024
G1 X21.588 Y36.851 E0.024
G1 X21.865 Y36.179 E0.024
G1 X22.21 Y35.5 E0.025
G1 X22.558 Y34.921 E0.023
G1 X22.972 Y34.331 E0.024
G1 X23.431 Y33.775 E0.024
G1 X23.924 Y33.258 E0.024
;rapid-leaky
G0 X24.203 Y33.545 F3000
;bead-skirt/brim
G1 X24.718 Y33.079 F960 E0.023
G1 X25.266 Y32.655 E0.023
G1 X25.838 Y32.275 E0.023
G1 X26.442 Y31.935 E0.023
G1 X27.067 Y31.644 E0.023
G1 X27.712 Y31.398 E0.023
G1 X28.381 Y31.199 E0.023
G1 X29.095 Y31.047 E0.024
G1 X29.734 Y30.957 E0.022
G1 X30.424 Y30.911 E0.023
G1 X31.115 Y30.918 E0.023
G1 X31.802 Y30.974 E0.022
G1 X32.485 Y31.082 E0.023
G1 X33.159 Y31.241 E0.023
G1 X33.857 Y31.462 E0.025
G1 X34.46 Y31.704 E0.021
G1 X35.08 Y32.006 E0.023
G1 X35.676 Y32.354 E0.023
G1 X36.281 Y32.771 E0.025
G1 X36.822 Y33.209 E0.023
G1 X37.322 Y33.681 E0.023
G1 X37.76 Y34.158 E0.021
G1 X38.19 Y34.699 E0.023
G1 X38.601 Y35.307 E0.025
G1 X39 Y36.024 E0.027
G1 Y35.184 E0.028
G1 X39.023 Y34.372 E0.027
G1 X39.098 Y33.483 E0.03
G1 X39.203 Y32.707 E0.026
G1 X39.362 Y31.882 E0.028
G1 X39.564 Y31.069 E0.028
G1 X39.81 Y30.265 E0.027
G1 X40.101 Y29.477 E0.028
G1 X40.431 Y28.708 E0.028
G1 X40.805 Y27.954 E0.028
G1 X41.219 Y27.223 E0.028
G1 X41.67 Y26.516 E0.028
G1 X42.16 Y25.834 E0.028
G1 X42.686 Y25.18 E0.028
G1 X43.246 Y24.555 E0.028
G1 X43.84 Y23.961 E0.028
G1 X44.465 Y23.401 E0.028
G1 X45.119 Y22.875 E0.028
G1 X45.801 Y22.385 E0.028
G1 X46.511 Y21.931 E0.028
G1 X47.29 Y21.494 E0.029
G1 X47.992 Y21.146 E0.026
G1 X48.763 Y20.815 E0.028
G1 X49.55 Y20.525 E0.028
G1 X50.354 Y20.279 E0.028
G1 X51.167 Y20.077 E0.028
G1 X51.992 Y19.918 E0.028
G1 X52.825 Y19.805 E0.028
G1 X53.664 Y19.737 E0.028
G1 X54.558 Y19.715 E0.03
G1 X55.34 Y19.738 E0.026
G1 X56.175 Y19.805 E0.027
G1 X57.008 Y19.918 E0.028
G1 X57.833 Y20.077 E0.028
G1 X58.646 Y20.279 E0.028
G1 X59.45 Y20.525 E0.028
G1 X60.237 Y20.816 E0.028
G1 X61.008 Y21.146 E0.028
G1 X61.762 Y21.52 E0.028
G1 X62.492 Y21.934 E0.028
G1 X63.199 Y22.385 E0.028
G1 X63.881 Y22.875 E0.028
G1 X64.535 Y23.401 E0.028
G1 X65.16 Y23.961 E0.028
G1 X65.754 Y24.555 E0.028
G1 X66.314 Y25.18 E0.027
G1 X66.843 Y25.837 E0.028
G1 X67.361 Y26.565 E0.03
G1 X67.782 Y27.223 E0.026
G1 X68.195 Y27.954 E0.028
G1 X68.569 Y28.708 E0.028
G1 X68.901 Y29.48 E0.028
G1 X69.207 Y30.32 E0.03
G1 X69.436 Y31.069 E0.026
G1 X69.638 Y31.882 E0.028
G1 X69.797 Y32.707 E0.028
G1 X69.91 Y33.54 E0.028
G1 X69.978 Y34.376 E0.027
G1 X70 Y35.184 E0.027
G1 Y36.027 E0.028
G1 X70.079 Y35.863 E0.006
G1 X70.425 Y35.266 E0.023
G1 X70.809 Y34.7 E0.023
G1 X71.214 Y34.187 E0.022
G1 X71.708 Y33.652 E0.024
G1 X72.179 Y33.209 E0.022
G1 X72.716 Y32.772 E0.023
G1 X73.286 Y32.378 E0.023
G1 X73.918 Y32.007 E0.024
G1 X74.54 Y31.704 E0.023
G1 X75.143 Y31.462 E0.022
G1 X75.841 Y31.241 E0.024
G1 X76.515 Y31.082 E0.023
G1 X77.195 Y30.974 E0.023
G1 X77.84 Y30.92 E0.022
G1 X78.573 Y30.911 E0.024
G1 X79.267 Y30.957 E0.023
G1 X79.95 Y31.054 E0.023
G1 X80.621 Y31.2 E0.023
G1 X81.245 Y31.384 E0.021
G1 X81.928 Y31.642 E0.025
G1 X82.558 Y31.935 E0.023
G1 X83.162 Y32.275 E0.023
G1 X83.734 Y32.655 E0.023
G1 X84.282 Y33.079 E0.023
G1 X84.796 Y33.544 E0.023
G1 X85.24 Y34.009 E0.021
G1 X85.707 Y34.571 E0.025
G1 X86.107 Y35.139 E0.023
G1 X86.44 Y35.693 E0.021
G1 X86.771 Y36.346 E0.025
G1 X87.036 Y36.989 E0.023
G1 X87.25 Y37.643 E0.023
G1 X87.406 Y38.269 E0.021
G1 X87.533 Y38.991 E0.024
G1 X87.598 Y39.684 E0.023
G1 X87.612 Y40.371 E0.023
G1 X87.575 Y41.063 E0.023
G1 X87.486 Y41.749 E0.023
G1 X87.348 Y42.426 E0.023
G1 X87.159 Y43.088 E0.023
G1 X86.922 Y43.738 E0.023
G1 X86.636 Y44.368 E0.023
G1 X86.327 Y44.935 E0.022
G1 X85.956 Y45.515 E0.023
G1 X72.649 Y64.518 E0.771
G1 X69.388 E0.109
G1 X69.194 Y65.15 E0.022
G1 X68.906 Y65.936 E0.028
G1 X68.577 Y66.704 E0.027
G1 X68.232 Y67.402 E0.026
G1 X67.798 Y68.181 E0.03
G1 X67.346 Y68.89 E0.028
G1 X66.86 Y69.571 E0.028
G1 X66.336 Y70.225 E0.028
G1 X65.779 Y70.848 E0.027
G1 X65.23 Y71.4 E0.026
G1 X64.57 Y72 E0.03
G1 X64.246 Y72.262 E0.014
G1 X64.849 Y73.395 E0.043
G1 X65.536 Y73.315 E0.023
G1 X66.218 Y73.287 E0.022
G1 X66.901 Y73.313 E0.023
G1 X67.621 Y73.394 E0.024
G1 X68.256 Y73.517 E0.022
G1 X68.954 Y73.707 E0.024
G1 X69.598 Y73.939 E0.022
G1 X70.218 Y74.217 E0.023
G1 X70.778 Y74.518 E0.021
G1 X71.35 Y74.881 E0.023
G1 X71.9 Y75.292 E0.022
G1 X72.417 Y75.745 E0.023
G1 X72.922 Y76.261 E0.024
G1 X73.334 Y76.752 E0.022
G1 X73.731 Y77.303 E0.022
G1 X74.087 Y77.885 E0.023
G1 X74.399 Y78.493 E0.023
G1 X74.663 Y79.124 E0.022
G1 X74.891 Y79.813 E0.025
G1 X75.055 Y80.481 E0.022
G1 X75.166 Y81.154 E0.023
G1 X75.227 Y81.832 E0.023
G1 X75.236 Y82.468 E0.021
G1 X75.198 Y83.144 E0.022
G1 X75.107 Y83.824 E0.023
G1 X74.964 Y84.494 E0.023
G1 X74.773 Y85.146 E0.023
G1 X74.53 Y85.79 E0.023
G1 X74.221 Y86.443 E0.024
G1 X73.908 Y86.998 E0.021
G1 X73.53 Y87.565 E0.022
G1 X73.108 Y88.104 E0.023
G1 X72.648 Y88.606 E0.023
G1 X72.153 Y89.074 E0.023
G1 X71.616 Y89.507 E0.022
G1 X71.02 Y89.913 E0.024
G1 X70.466 Y90.235 E0.022
G1 X69.855 Y90.531 E0.022
G1 X69.216 Y90.784 E0.023
G1 X68.523 Y90.994 E0.024
G1 X67.902 Y91.134 E0.021
G1 X67.223 Y91.237 E0.023
G1 X66.5 Y91.285 E0.024
G1 X65.863 Y91.283 E0.022
G1 X65.181 Y91.228 E0.022
G1 X64.509 Y91.123 E0.023
G1 X63.844 Y90.966 E0.023
G1 X63.194 Y90.76 E0.022
G1 X62.563 Y90.506 E0.023
G1 X61.948 Y90.204 E0.023
G1 X61.361 Y89.855 E0.022
G1 X60.839 Y89.491 E0.022
G1 X60.278 Y89.036 E0.024
G1 X59.78 Y88.561 E0.023
G1 X59.353 Y88.087 E0.021
G1 X58.909 Y87.517 E0.024
G1 X58.531 Y86.942 E0.023
G1 X58.201 Y86.344 E0.022
G1 X57.936 Y85.767 E0.022
G1 X57.682 Y85.09 E0.024
G1 X57.494 Y84.43 E0.022
G1 X57.356 Y83.761 E0.023
G1 X57.27 Y83.086 E0.023
G1 X57.237 Y82.445 E0.021
G1 X57.254 Y81.724 E0.024
G1 X57.321 Y81.04 E0.023
G1 X57.443 Y80.369 E0.023
G1 X57.601 Y79.752 E0.021
G1 X57.832 Y79.065 E0.024
G1 X58.101 Y78.437 E0.023
G1 X58.395 Y77.87 E0.021
G1 X58.752 Y77.289 E0.023
G1 X59.179 Y76.702 E0.024
G1 X59.64 Y76.166 E0.023
G1 X59.037 Y75.032 E0.043
G1 X58.639 Y75.154 E0.014
G1 X57.825 Y75.356 E0.028
G1 X57.002 Y75.513 E0.028
G1 X56.172 Y75.626 E0.027
G1 X55.336 Y75.694 E0.028
G1 X54.5 Y75.716 E0.028
G1 X53.664 Y75.694 E0.028
G1 X52.828 Y75.626 E0.028
G1 X51.998 Y75.513 E0.028
G1 X51.175 Y75.356 E0.028
G1 X50.361 Y75.154 E0.028
G1 X49.963 Y75.032 E0.013
G1 X49.36 Y76.166 E0.043
G1 X49.821 Y76.702 E0.024
G1 X50.245 Y77.286 E0.024
G1 X50.583 Y77.83 E0.021
G1 X50.9 Y78.438 E0.023
G1 X51.183 Y79.107 E0.024
G1 X51.4 Y79.753 E0.023
G1 X51.558 Y80.375 E0.021
G1 X51.683 Y81.085 E0.024
G1 X51.746 Y81.721 E0.021
G1 X51.764 Y82.4 E0.023
G1 X51.73 Y83.084 E0.022
G1 X51.644 Y83.761 E0.023
G1 X51.506 Y84.43 E0.023
G1 X51.318 Y85.09 E0.023
G1 X51.064 Y85.767 E0.024
G1 X50.799 Y86.344 E0.021
G1 X50.469 Y86.942 E0.023
G1 X50.091 Y87.517 E0.023
G1 X49.647 Y88.087 E0.024
G1 X49.22 Y88.561 E0.021
G1 X48.722 Y89.036 E0.023
G1 X48.161 Y89.491 E0.024
G1 X47.639 Y89.855 E0.021
G1 X47.052 Y90.204 E0.023
G1 X46.437 Y90.506 E0.022
G1 X45.806 Y90.76 E0.023
G1 X45.156 Y90.966 E0.023
G1 X44.491 Y91.123 E0.022
G1 X43.819 Y91.228 E0.023
G1 X43.182 Y91.279 E0.021
G1 X42.461 Y91.286 E0.024
G1 X41.772 Y91.236 E0.023
G1 X41.098 Y91.134 E0.023
G1 X40.477 Y90.994 E0.021
G1 X39.784 Y90.784 E0.024
G1 X39.145 Y90.531 E0.023
G1 X38.573 Y90.254 E0.021
G1 X37.946 Y89.893 E0.024
G1 X37.382 Y89.505 E0.023
G1 X36.882 Y89.103 E0.021
G1 X36.355 Y88.609 E0.024
G1 X35.894 Y88.106 E0.023
G1 X35.497 Y87.601 E0.021
G1 X35.094 Y87.001 E0.024
G1 X34.757 Y86.404 E0.023
G1 X34.468 Y85.784 E0.023
G1 X34.227 Y85.146 E0.023
G1 X34.036 Y84.494 E0.022
G1 X33.893 Y83.824 E0.023
G1 X33.802 Y83.144 E0.023
G1 X33.764 Y82.465 E0.022
G1 X33.776 Y81.783 E0.023
G1 X33.841 Y81.104 E0.023
G1 X33.955 Y80.434 E0.022
G1 X34.11 Y79.81 E0.022
G1 X34.337 Y79.124 E0.024
G1 X34.6 Y78.496 E0.023
G1 X34.891 Y77.925 E0.021
G1 X35.266 Y77.307 E0.024
G1 X35.641 Y76.785 E0.021
G1 X36.106 Y76.23 E0.024
G1 X36.586 Y75.742 E0.023
G1 X37.097 Y75.294 E0.023
G1 X37.61 Y74.908 E0.021
G1 X38.18 Y74.543 E0.023
G1 X38.779 Y74.218 E0.022
G1 X39.404 Y73.938 E0.023
G1 X40.089 Y73.693 E0.024
G1 X40.753 Y73.515 E0.023
G1 X41.424 Y73.388 E0.023
G1 X42.097 Y73.313 E0.022
G1 X42.734 Y73.287 E0.022
G1 X43.416 Y73.311 E0.022
G1 X44.151 Y73.395 E0.025
G1 X44.754 Y72.262 E0.043
G1 X44.43 Y72 E0.013
G1 X43.77 Y71.4 E0.03
G1 X43.221 Y70.848 E0.026
G1 X42.664 Y70.225 E0.028
G1 X42.14 Y69.571 E0.028
G1 X41.654 Y68.89 E0.027
G1 X41.202 Y68.181 E0.028
G1 X40.768 Y67.402 E0.03
G1 X40.423 Y66.704 E0.026
G1 X40.094 Y65.936 E0.028
G1 X39.806 Y65.15 E0.028
G1 X39.561 Y64.35 E0.027
G1 X39.484 Y64.04 E0.011
G1 X36.643 Y64.936 E0.099
G1 X23.047 Y45.519 E0.788
G1 X22.695 Y44.974 E0.022
G1 X22.365 Y44.369 E0.023
G1 X22.078 Y43.738 E0.023
G1 X21.841 Y43.088 E0.023
G1 X21.652 Y42.426 E0.023
G1 X21.514 Y41.749 E0.023
G1 X21.425 Y41.063 E0.023
G1 X21.388 Y40.371 E0.023
G1 X21.402 Y39.684 E0.023
G1 X21.466 Y38.996 E0.023
G1 X21.583 Y38.313 E0.023
G1 X21.749 Y37.644 E0.023
G1 X21.964 Y36.989 E0.023
G1 X22.229 Y36.346 E0.023
G1 X22.56 Y35.693 E0.024
G1 X22.893 Y35.139 E0.022
G1 X23.29 Y34.574 E0.023
G1 X23.73 Y34.041 E0.023
G1 X24.203 Y33.545 E0.022
;rapid-leaky
G0 X24.483 Y33.831 F3000
;bead-skirt/brim
G1 X24.975 Y33.386 F960 E0.023
G1 X25.499 Y32.981 E0.022
G1 X26.047 Y32.616 E0.021
G1 X26.624 Y32.292 E0.022
G1 X27.223 Y32.012 E0.022
G1 X27.841 Y31.777 E0.022
G1 X28.48 Y31.587 E0.023
G1 X29.165 Y31.441 E0.023
G1 X29.776 Y31.355 E0.02
G1 X30.436 Y31.311 E0.022
G1 X31.097 Y31.318 E0.022
G1 X31.755 Y31.372 E0.022
G1 X32.408 Y31.475 E0.022
G1 X33.053 Y31.627 E0.022
G1 X33.722 Y31.838 E0.024
G1 X34.298 Y32.07 E0.02
G1 X34.891 Y32.359 E0.022
G1 X35.461 Y32.692 E0.022
G1 X36.042 Y33.091 E0.024
G1 X36.558 Y33.51 E0.022
G1 X37.038 Y33.962 E0.022
G1 X37.456 Y34.418 E0.02
G1 X37.868 Y34.936 E0.022
G1 X38.261 Y35.518 E0.024
G1 X38.588 Y36.091 E0.022
G1 X38.856 Y36.649 E0.02
G1 X39.096 Y37.261 E0.022
G1 X39.206 Y37.615 E0.012
G1 X39.4 E0.007
G1 Y35.19 E0.081
G1 X39.422 Y34.394 E0.026
G1 X39.495 Y33.527 E0.029
G1 X39.598 Y32.771 E0.025
G1 X39.753 Y31.968 E0.028
G1 X39.95 Y31.176 E0.027
G1 X40.19 Y30.393 E0.027
G1 X40.472 Y29.625 E0.027
G1 X40.794 Y28.876 E0.027
G1 X41.158 Y28.141 E0.028
G1 X41.561 Y27.429 E0.027
G1 X42.001 Y26.741 E0.027
G1 X42.478 Y26.076 E0.027
G1 X42.991 Y25.439 E0.027
G1 X43.537 Y24.831 E0.028
G1 X44.116 Y24.252 E0.027
G1 X44.724 Y23.706 E0.027
G1 X45.361 Y23.193 E0.027
G1 X46.026 Y22.717 E0.027
G1 X46.717 Y22.275 E0.028
G1 X47.477 Y21.848 E0.029
G1 X48.16 Y21.509 E0.025
G1 X48.911 Y21.187 E0.027
G1 X49.678 Y20.905 E0.027
G1 X50.461 Y20.665 E0.028
G1 X51.253 Y20.468 E0.027
G1 X52.057 Y20.313 E0.027
G1 X52.868 Y20.203 E0.027
G1 X53.685 Y20.137 E0.027
G1 X54.558 Y20.115 E0.029
G1 X55.318 Y20.137 E0.026
G1 X56.132 Y20.203 E0.027
G1 X56.943 Y20.313 E0.027
G1 X57.747 Y20.468 E0.027
G1 X58.539 Y20.665 E0.028
G1 X59.322 Y20.905 E0.027
G1 X60.089 Y21.187 E0.027
G1 X60.84 Y21.509 E0.027
G1 X61.574 Y21.873 E0.027
G1 X62.286 Y22.276 E0.028
G1 X62.974 Y22.717 E0.027
G1 X63.639 Y23.193 E0.027
G1 X64.276 Y23.706 E0.027
G1 X64.884 Y24.252 E0.027
G1 X65.463 Y24.831 E0.028
G1 X66.009 Y25.439 E0.027
G1 X66.524 Y26.079 E0.027
G1 X67.029 Y26.788 E0.029
G1 X67.439 Y27.429 E0.025
G1 X67.842 Y28.141 E0.028
G1 X68.206 Y28.876 E0.027
G1 X68.529 Y29.628 E0.027
G1 X68.827 Y30.447 E0.029
G1 X69.05 Y31.176 E0.025
G1 X69.247 Y31.968 E0.028
G1 X69.402 Y32.772 E0.027
G1 X69.512 Y33.583 E0.027
G1 X69.578 Y34.397 E0.027
G1 X69.6 Y35.19 E0.027
G1 Y37.615 E0.08
G1 X69.794 E0.007
G1 X69.888 Y37.305 E0.01
G1 X70.144 Y36.649 E0.024
G1 X70.433 Y36.05 E0.022
G1 X70.764 Y35.479 E0.022
G1 X71.132 Y34.937 E0.022
G1 X71.518 Y34.447 E0.02
G1 X71.992 Y33.934 E0.024
G1 X72.442 Y33.51 E0.02
G1 X72.956 Y33.093 E0.022
G1 X73.502 Y32.716 E0.022
G1 X74.107 Y32.36 E0.024
G1 X74.702 Y32.07 E0.022
G1 X75.278 Y31.838 E0.02
G1 X75.947 Y31.627 E0.024
G1 X76.592 Y31.475 E0.022
G1 X77.243 Y31.372 E0.022
G1 X77.859 Y31.32 E0.02
G1 X78.562 Y31.311 E0.024
G1 X79.225 Y31.355 E0.022
G1 X79.879 Y31.448 E0.022
G1 X80.522 Y31.588 E0.022
G1 X81.118 Y31.763 E0.02
G1 X81.773 Y32.011 E0.024
G1 X82.375 Y32.291 E0.022
G1 X82.953 Y32.616 E0.022
G1 X83.501 Y32.981 E0.022
G1 X84.025 Y33.386 E0.022
G1 X84.517 Y33.831 E0.022
G1 X84.941 Y34.275 E0.02
G1 X85.389 Y34.814 E0.023
G1 X85.771 Y35.357 E0.022
G1 X86.09 Y35.887 E0.021
G1 X86.407 Y36.513 E0.023
G1 X86.661 Y37.128 E0.022
G1 X86.866 Y37.753 E0.022
G1 X87.015 Y38.352 E0.021
G1 X87.136 Y39.044 E0.023
G1 X87.198 Y39.707 E0.022
G1 X87.212 Y40.365 E0.022
G1 X87.177 Y41.027 E0.022
G1 X87.092 Y41.683 E0.022
G1 X86.959 Y42.331 E0.022
G1 X86.778 Y42.965 E0.022
G1 X86.551 Y43.587 E0.022
G1 X86.278 Y44.189 E0.022
G1 X85.982 Y44.731 E0.021
G1 X85.623 Y45.293 E0.022
G1 X72.441 Y64.118 E0.764
G1 X69.4 E0.102
G1 Y62.667 E0.048
G1 X69.25 Y63.452 E0.026
G1 X69.053 Y64.244 E0.027
G1 X68.815 Y65.023 E0.028
G1 X68.534 Y65.788 E0.027
G1 X68.213 Y66.536 E0.027
G1 X67.878 Y67.216 E0.025
G1 X67.454 Y67.976 E0.029
G1 X67.015 Y68.666 E0.027
G1 X66.541 Y69.33 E0.027
G1 X66.03 Y69.967 E0.027
G1 X65.487 Y70.574 E0.027
G1 X64.954 Y71.111 E0.026
G1 X64.31 Y71.696 E0.029
G1 X63.738 Y72.158 E0.024
G1 X64.634 Y73.844 E0.064
G1 X64.922 Y73.789 E0.009
G1 X65.567 Y73.714 E0.022
G1 X66.219 Y73.688 E0.022
G1 X66.871 Y73.712 E0.021
G1 X67.561 Y73.789 E0.023
G1 X68.165 Y73.907 E0.021
G1 X68.833 Y74.089 E0.023
G1 X69.448 Y74.31 E0.022
G1 X70.041 Y74.576 E0.021
G1 X70.576 Y74.864 E0.02
G1 X71.123 Y75.211 E0.022
G1 X71.648 Y75.603 E0.022
G1 X72.142 Y76.035 E0.022
G1 X72.625 Y76.53 E0.023
G1 X73.018 Y76.998 E0.02
G1 X73.398 Y77.524 E0.021
G1 X73.738 Y78.081 E0.022
G1 X74.036 Y78.662 E0.022
G1 X74.288 Y79.265 E0.022
G1 X74.506 Y79.924 E0.023
G1 X74.663 Y80.561 E0.022
G1 X74.769 Y81.205 E0.021
G1 X74.827 Y81.852 E0.022
G1 X74.836 Y82.459 E0.02
G1 X74.799 Y83.107 E0.022
G1 X74.713 Y83.755 E0.021
G1 X74.576 Y84.395 E0.022
G1 X74.393 Y85.019 E0.022
G1 X74.162 Y85.633 E0.022
G1 X73.866 Y86.259 E0.023
G1 X73.567 Y86.789 E0.02
G1 X73.206 Y87.331 E0.022
G1 X72.802 Y87.846 E0.021
G1 X72.363 Y88.325 E0.022
G1 X71.889 Y88.772 E0.022
G1 X71.377 Y89.185 E0.021
G1 X70.807 Y89.574 E0.023
G1 X70.278 Y89.882 E0.021
G1 X69.694 Y90.164 E0.021
G1 X69.084 Y90.406 E0.022
G1 X68.42 Y90.607 E0.023
G1 X67.828 Y90.741 E0.02
G1 X67.18 Y90.839 E0.022
G1 X66.487 Y90.885 E0.023
G1 X65.88 Y90.883 E0.021
G1 X65.228 Y90.831 E0.021
G1 X64.586 Y90.73 E0.022
G1 X63.95 Y90.581 E0.022
G1 X63.329 Y90.383 E0.021
G1 X62.726 Y90.141 E0.022
G1 X62.139 Y89.852 E0.022
G1 X61.578 Y89.519 E0.021
G1 X61.08 Y89.171 E0.021
G1 X60.542 Y88.736 E0.023
G1 X60.067 Y88.282 E0.021
G1 X59.659 Y87.83 E0.021
G1 X59.235 Y87.284 E0.023
G1 X58.874 Y86.735 E0.022
G1 X58.559 Y86.164 E0.021
G1 X58.306 Y85.613 E0.02
G1 X58.062 Y84.965 E0.023
G1 X57.882 Y84.334 E0.022
G1 X57.751 Y83.695 E0.022
G1 X57.669 Y83.05 E0.022
G1 X57.637 Y82.439 E0.02
G1 X57.653 Y81.749 E0.023
G1 X57.718 Y81.095 E0.022
G1 X57.834 Y80.454 E0.021
G1 X57.985 Y79.865 E0.021
G1 X58.206 Y79.208 E0.023
G1 X58.463 Y78.608 E0.021
G1 X58.743 Y78.067 E0.021
G1 X59.085 Y77.512 E0.021
G1 X59.493 Y76.95 E0.023
G1 X59.921 Y76.451 E0.022
G1 X60.132 Y76.239 E0.01
G1 X59.235 Y74.552 E0.064
G1 X58.532 Y74.768 E0.024
G1 X57.739 Y74.965 E0.027
G1 X56.938 Y75.118 E0.028
G1 X56.129 Y75.228 E0.027
G1 X55.314 Y75.294 E0.027
G1 X54.5 Y75.316 E0.027
G1 X53.686 Y75.294 E0.027
G1 X52.871 Y75.228 E0.027
G1 X52.062 Y75.118 E0.027
G1 X51.261 Y74.965 E0.028
G1 X50.468 Y74.768 E0.027
G1 X49.765 Y74.552 E0.024
G1 X48.868 Y76.239 E0.064
G1 X49.079 Y76.451 E0.01
G1 X49.507 Y76.95 E0.022
G1 X49.913 Y77.51 E0.023
G1 X50.235 Y78.028 E0.02
G1 X50.538 Y78.609 E0.022
G1 X50.809 Y79.249 E0.023
G1 X51.016 Y79.866 E0.021
G1 X51.167 Y80.459 E0.021
G1 X51.287 Y81.139 E0.023
G1 X51.347 Y81.746 E0.02
G1 X51.364 Y82.395 E0.022
G1 X51.331 Y83.048 E0.021
G1 X51.249 Y83.695 E0.022
G1 X51.118 Y84.334 E0.022
G1 X50.938 Y84.965 E0.022
G1 X50.694 Y85.613 E0.023
G1 X50.441 Y86.164 E0.02
G1 X50.126 Y86.735 E0.021
G1 X49.765 Y87.284 E0.022
G1 X49.341 Y87.83 E0.023
G1 X48.933 Y88.282 E0.021
G1 X48.458 Y88.736 E0.021
G1 X47.92 Y89.171 E0.023
G1 X47.422 Y89.519 E0.021
G1 X46.861 Y89.852 E0.021
G1 X46.274 Y90.141 E0.022
G1 X45.671 Y90.383 E0.022
G1 X45.05 Y90.581 E0.021
G1 X44.414 Y90.73 E0.022
G1 X43.772 Y90.831 E0.022
G1 X43.164 Y90.879 E0.02
G1 X42.474 Y90.886 E0.023
G1 X41.816 Y90.838 E0.022
G1 X41.172 Y90.741 E0.022
G1 X40.58 Y90.607 E0.02
G1 X39.916 Y90.406 E0.023
G1 X39.306 Y90.164 E0.022
G1 X38.76 Y89.9 E0.02
G1 X38.16 Y89.555 E0.023
G1 X37.621 Y89.184 E0.022
G1 X37.145 Y88.801 E0.02
G1 X36.639 Y88.328 E0.023
G1 X36.199 Y87.847 E0.022
G1 X35.821 Y87.366 E0.02
G1 X35.434 Y86.791 E0.023
G1 X35.113 Y86.221 E0.022
G1 X34.837 Y85.629 E0.021
G1 X34.607 Y85.019 E0.022
G1 X34.424 Y84.395 E0.022
G1 X34.287 Y83.755 E0.022
G1 X34.201 Y83.107 E0.021
G1 X34.164 Y82.457 E0.022
G1 X34.175 Y81.806 E0.022
G1 X34.238 Y81.156 E0.021
G1 X34.347 Y80.516 E0.022
G1 X34.495 Y79.922 E0.02
G1 X34.712 Y79.265 E0.023
G1 X34.963 Y78.664 E0.022
G1 X35.24 Y78.12 E0.02
G1 X35.6 Y77.528 E0.023
G1 X35.957 Y77.03 E0.021
G1 X36.402 Y76.499 E0.023
G1 X36.861 Y76.033 E0.021
G1 X37.35 Y75.605 E0.022
G1 X37.839 Y75.237 E0.02
G1 X38.384 Y74.887 E0.022
G1 X38.956 Y74.577 E0.022
G1 X39.553 Y74.309 E0.021
G1 X40.209 Y74.076 E0.024
G1 X40.842 Y73.905 E0.021
G1 X41.484 Y73.784 E0.022
G1 X42.127 Y73.712 E0.022
G1 X42.735 Y73.688 E0.02
G1 X43.386 Y73.711 E0.022
G1 X44.076 Y73.788 E0.023
G1 X44.366 Y73.844 E0.009
G1 X45.262 Y72.158 E0.064
G1 X44.69 Y71.696 E0.024
G1 X44.046 Y71.111 E0.029
G1 X43.513 Y70.574 E0.025
G1 X42.97 Y69.967 E0.028
G1 X42.459 Y69.33 E0.027
G1 X41.985 Y68.666 E0.027
G1 X41.546 Y67.976 E0.027
G1 X41.122 Y67.216 E0.029
G1 X40.787 Y66.536 E0.025
G1 X40.466 Y65.788 E0.027
G1 X40.185 Y65.023 E0.027
G1 X39.947 Y64.244 E0.028
G1 X39.75 Y63.452 E0.027
G1 X39.6 Y62.667 E0.026
G1 Y63.584 E0.031
G1 X36.803 Y64.466 E0.097
G1 X23.379 Y45.296 E0.779
G1 X23.039 Y44.769 E0.02
G1 X22.723 Y44.19 E0.022
G1 X22.449 Y43.587 E0.022
G1 X22.222 Y42.965 E0.022
G1 X22.041 Y42.331 E0.022
G1 X21.909 Y41.683 E0.022
G1 X21.823 Y41.027 E0.022
G1 X21.788 Y40.365 E0.022
G1 X21.802 Y39.706 E0.022
G1 X21.863 Y39.048 E0.022
G1 X21.975 Y38.395 E0.022
G1 X22.134 Y37.754 E0.022
G1 X22.339 Y37.128 E0.022
G1 X22.593 Y36.513 E0.022
G1 X22.91 Y35.887 E0.024
G1 X23.229 Y35.357 E0.02
G1 X23.609 Y34.817 E0.022
G1 X24.03 Y34.307 E0.022
G1 X24.483 Y33.831 E0.022
;rapid-leaky
G0 X24.762 Y34.118 F3000
;bead-skirt/brim
G1 X25.232 Y33.693 F960 E0.021
G1 X25.732 Y33.306 E0.021
G1 X26.256 Y32.957 E0.021
G1 X26.807 Y32.648 E0.021
G1 X27.379 Y32.381 E0.021
G1 X27.969 Y32.156 E0.021
G1 X28.579 Y31.975 E0.021
G1 X29.234 Y31.836 E0.023
G1 X29.817 Y31.754 E0.019
G1 X30.447 Y31.712 E0.021
G1 X31.079 Y31.718 E0.021
G1 X31.707 Y31.769 E0.021
G1 X32.331 Y31.867 E0.021
G1 X32.947 Y32.012 E0.021
G1 X33.587 Y32.215 E0.023
G1 X34.135 Y32.436 E0.019
G1 X34.702 Y32.712 E0.021
G1 X35.247 Y33.03 E0.021
G1 X35.802 Y33.412 E0.023
G1 X36.295 Y33.812 E0.021
G1 X36.753 Y34.244 E0.021
G1 X37.152 Y34.678 E0.019
G1 X37.545 Y35.172 E0.021
G1 X37.922 Y35.73 E0.023
G1 X38.234 Y36.277 E0.021
G1 X38.489 Y36.809 E0.019
G1 X38.718 Y37.394 E0.021
G1 X38.911 Y38.015 E0.022
G1 X39.8 E0.029
G1 Y35.195 E0.094
G1 X39.822 Y34.417 E0.026
G1 X39.893 Y33.571 E0.028
G1 X39.993 Y32.836 E0.025
G1 X40.143 Y32.055 E0.026
G1 X40.335 Y31.283 E0.027
G1 X40.569 Y30.521 E0.026
G1 X40.844 Y29.773 E0.027
G1 X41.158 Y29.044 E0.026
G1 X41.512 Y28.329 E0.027
G1 X41.904 Y27.636 E0.026
G1 X42.333 Y26.965 E0.027
G1 X42.797 Y26.319 E0.026
G1 X43.296 Y25.698 E0.027
G1 X43.827 Y25.106 E0.026
G1 X44.391 Y24.542 E0.027
G1 X44.983 Y24.011 E0.026
G1 X45.604 Y23.512 E0.027
G1 X46.25 Y23.048 E0.026
G1 X46.923 Y22.618 E0.027
G1 X47.664 Y22.202 E0.028
G1 X48.328 Y21.873 E0.025
G1 X49.059 Y21.559 E0.026
G1 X49.806 Y21.284 E0.026
G1 X50.568 Y21.05 E0.027
G1 X51.339 Y20.858 E0.026
G1 X52.121 Y20.708 E0.027
G1 X52.911 Y20.601 E0.026
G1 X53.706 Y20.536 E0.027
G1 X54.557 Y20.516 E0.028
G1 X55.296 Y20.537 E0.025
G1 X56.089 Y20.601 E0.026
G1 X56.879 Y20.708 E0.027
G1 X57.661 Y20.858 E0.026
G1 X58.432 Y21.05 E0.027
G1 X59.194 Y21.284 E0.026
G1 X59.941 Y21.559 E0.027
G1 X60.673 Y21.873 E0.026
G1 X61.386 Y22.227 E0.027
G1 X62.079 Y22.619 E0.026
G1 X62.75 Y23.048 E0.027
G1 X63.396 Y23.512 E0.026
G1 X64.017 Y24.011 E0.027
G1 X64.609 Y24.542 E0.026
G1 X65.173 Y25.106 E0.027
G1 X65.704 Y25.698 E0.026
G1 X66.205 Y26.32 E0.027
G1 X66.698 Y27.012 E0.028
G1 X67.096 Y27.636 E0.024
G1 X67.488 Y28.329 E0.027
G1 X67.842 Y29.044 E0.026
G1 X68.157 Y29.776 E0.027
G1 X68.448 Y30.574 E0.028
G1 X68.665 Y31.283 E0.025
G1 X68.857 Y32.054 E0.026
G1 X69.007 Y32.836 E0.027
G1 X69.114 Y33.626 E0.026
G1 X69.178 Y34.419 E0.027
G1 X69.2 Y35.195 E0.026
G1 Y38.015 E0.093
G1 X70.09 E0.03
G1 X70.267 Y37.436 E0.02
G1 X70.511 Y36.809 E0.023
G1 X70.787 Y36.237 E0.021
G1 X71.103 Y35.692 E0.021
G1 X71.455 Y35.173 E0.02
G1 X71.822 Y34.707 E0.02
G1 X72.277 Y34.215 E0.022
G1 X72.706 Y33.811 E0.02
G1 X73.197 Y33.413 E0.021
G1 X73.717 Y33.053 E0.021
G1 X74.297 Y32.712 E0.022
G1 X74.865 Y32.436 E0.021
G1 X75.413 Y32.215 E0.02
G1 X76.053 Y32.012 E0.022
G1 X76.669 Y31.867 E0.022
G1 X77.291 Y31.769 E0.02
G1 X77.879 Y31.72 E0.02
G1 X78.551 Y31.711 E0.022
G1 X79.184 Y31.754 E0.022
G1 X79.808 Y31.842 E0.021
G1 X80.423 Y31.976 E0.02
G1 X80.991 Y32.143 E0.02
G1 X81.618 Y32.38 E0.022
G1 X82.192 Y32.647 E0.022
G1 X82.744 Y32.957 E0.021
G1 X83.268 Y33.306 E0.02
G1 X83.768 Y33.693 E0.022
G1 X84.237 Y34.117 E0.021
G1 X84.643 Y34.542 E0.019
G1 X85.072 Y35.057 E0.022
G1 X85.436 Y35.576 E0.021
G1 X85.74 Y36.081 E0.02
G1 X86.044 Y36.68 E0.022
G1 X86.285 Y37.267 E0.022
G1 X86.481 Y37.864 E0.02
G1 X86.623 Y38.435 E0.02
G1 X86.74 Y39.098 E0.022
G1 X86.799 Y39.729 E0.021
G1 X86.812 Y40.358 E0.021
G1 X86.778 Y40.991 E0.021
G1 X86.697 Y41.617 E0.021
G1 X86.57 Y42.236 E0.021
G1 X86.398 Y42.841 E0.021
G1 X86.181 Y43.435 E0.021
G1 X85.92 Y44.011 E0.021
G1 X85.638 Y44.527 E0.02
G1 X85.291 Y45.07 E0.021
G1 X72.233 Y63.718 E0.758
G1 X69.8 E0.081
G1 Y57.415 E0.209
G1 X69.2 E0.02
G1 Y60.234 E0.094
G1 X69.179 Y61.008 E0.026
G1 X69.115 Y61.799 E0.026
G1 X69.008 Y62.587 E0.026
G1 X68.859 Y63.367 E0.027
G1 X68.668 Y64.137 E0.026
G1 X68.436 Y64.895 E0.027
G1 X68.163 Y65.64 E0.026
G1 X67.85 Y66.369 E0.026
G1 X67.524 Y67.03 E0.025
G1 X67.111 Y67.771 E0.028
G1 X66.683 Y68.442 E0.027
G1 X66.222 Y69.088 E0.026
G1 X65.725 Y69.708 E0.026
G1 X65.196 Y70.299 E0.027
G1 X64.677 Y70.822 E0.024
G1 X64.05 Y71.392 E0.029
G1 X63.431 Y71.892 E0.026
G1 X63.223 Y72.042 E0.009
G1 X64.42 Y74.292 E0.084
G1 X64.983 Y74.184 E0.019
G1 X65.598 Y74.113 E0.021
G1 X66.219 Y74.088 E0.021
G1 X66.841 Y74.111 E0.02
G1 X67.5 Y74.185 E0.022
G1 X68.074 Y74.297 E0.02
G1 X68.713 Y74.471 E0.022
G1 X69.299 Y74.682 E0.021
G1 X69.865 Y74.935 E0.02
G1 X70.374 Y75.209 E0.019
G1 X70.896 Y75.54 E0.021
G1 X71.396 Y75.914 E0.021
G1 X71.866 Y76.326 E0.021
G1 X72.328 Y76.799 E0.022
G1 X72.702 Y77.244 E0.019
G1 X73.065 Y77.746 E0.02
G1 X73.389 Y78.277 E0.021
G1 X73.673 Y78.831 E0.021
G1 X73.913 Y79.405 E0.021
G1 X74.121 Y80.035 E0.022
G1 X74.271 Y80.642 E0.02
G1 X74.372 Y81.255 E0.021
G1 X74.427 Y81.873 E0.021
G1 X74.436 Y82.451 E0.019
G1 X74.401 Y83.069 E0.021
G1 X74.319 Y83.687 E0.02
G1 X74.188 Y84.297 E0.021
G1 X74.014 Y84.892 E0.021
G1 X73.793 Y85.477 E0.02
G1 X73.51 Y86.075 E0.022
G1 X73.226 Y86.579 E0.02
G1 X72.881 Y87.096 E0.02
G1 X72.497 Y87.587 E0.021
G1 X72.078 Y88.044 E0.021
G1 X71.626 Y88.471 E0.02
G1 X71.138 Y88.864 E0.021
G1 X70.593 Y89.236 E0.022
G1 X70.091 Y89.528 E0.019
G1 X69.533 Y89.798 E0.021
G1 X68.952 Y90.028 E0.021
G1 X68.318 Y90.22 E0.022
G1 X67.754 Y90.348 E0.019
G1 X67.136 Y90.441 E0.021
G1 X66.475 Y90.485 E0.022
G1 X65.896 Y90.483 E0.019
G1 X65.275 Y90.433 E0.021
G1 X64.663 Y90.337 E0.021
G1 X64.057 Y90.195 E0.02
G1 X63.464 Y90.007 E0.021
G1 X62.889 Y89.775 E0.021
G1 X62.329 Y89.5 E0.02
G1 X61.795 Y89.182 E0.021
G1 X61.321 Y88.851 E0.019
G1 X60.807 Y88.435 E0.022
G1 X60.354 Y88.003 E0.021
G1 X59.966 Y87.573 E0.019
G1 X59.56 Y87.051 E0.022
G1 X59.216 Y86.529 E0.021
G1 X58.916 Y85.984 E0.021
G1 X58.675 Y85.459 E0.019
G1 X58.442 Y84.84 E0.022
G1 X58.271 Y84.239 E0.021
G1 X58.146 Y83.63 E0.02
G1 X58.068 Y83.014 E0.021
G1 X58.037 Y82.433 E0.019
G1 X58.053 Y81.773 E0.022
G1 X58.114 Y81.151 E0.021
G1 X58.225 Y80.539 E0.021
G1 X58.369 Y79.979 E0.019
G1 X58.58 Y79.351 E0.022
G1 X58.825 Y78.779 E0.021
G1 X59.092 Y78.264 E0.019
G1 X59.418 Y77.735 E0.021
G1 X59.807 Y77.198 E0.022
G1 X60.214 Y76.723 E0.021
G1 X60.624 Y76.312 E0.019
G1 X59.427 Y74.061 E0.085
G1 X59.185 Y74.149 E0.008
G1 X58.425 Y74.383 E0.027
G1 X57.653 Y74.574 E0.026
G1 X56.873 Y74.723 E0.027
G1 X56.086 Y74.83 E0.026
G1 X55.293 Y74.894 E0.027
G1 X54.5 Y74.915 E0.026
G1 X53.707 Y74.894 E0.026
G1 X52.914 Y74.83 E0.027
G1 X52.127 Y74.723 E0.026
G1 X51.347 Y74.574 E0.027
G1 X50.575 Y74.383 E0.026
G1 X49.815 Y74.149 E0.026
G1 X49.573 Y74.061 E0.009
G1 X48.376 Y76.312 E0.085
G1 X48.786 Y76.723 E0.019
G1 X49.193 Y77.198 E0.021
G1 X49.581 Y77.733 E0.022
G1 X49.887 Y78.227 E0.019
G1 X50.175 Y78.78 E0.021
G1 X50.434 Y79.391 E0.022
G1 X50.632 Y79.98 E0.021
G1 X50.776 Y80.543 E0.019
G1 X50.89 Y81.194 E0.022
G1 X50.947 Y81.771 E0.019
G1 X50.964 Y82.39 E0.021
G1 X50.933 Y83.013 E0.021
G1 X50.854 Y83.63 E0.02
G1 X50.729 Y84.239 E0.021
G1 X50.558 Y84.84 E0.021
G1 X50.325 Y85.459 E0.022
G1 X50.084 Y85.984 E0.019
G1 X49.784 Y86.529 E0.021
G1 X49.44 Y87.051 E0.021
G1 X49.034 Y87.573 E0.022
G1 X48.646 Y88.003 E0.019
G1 X48.193 Y88.435 E0.021
G1 X47.679 Y88.851 E0.022
G1 X47.205 Y89.182 E0.019
G1 X46.671 Y89.5 E0.021
G1 X46.111 Y89.775 E0.02
G1 X45.536 Y90.007 E0.021
G1 X44.943 Y90.195 E0.021
G1 X44.337 Y90.337 E0.02
G1 X43.725 Y90.433 E0.021
G1 X43.146 Y90.479 E0.019
G1 X42.486 Y90.485 E0.022
G1 X41.86 Y90.44 E0.021
G1 X41.246 Y90.348 E0.021
G1 X40.682 Y90.22 E0.019
G1 X40.048 Y90.028 E0.022
G1 X39.467 Y89.798 E0.021
G1 X38.947 Y89.546 E0.019
G1 X38.373 Y89.216 E0.022
G1 X37.86 Y88.863 E0.021
G1 X37.407 Y88.498 E0.019
G1 X36.924 Y88.046 E0.022
G1 X36.504 Y87.588 E0.021
G1 X36.144 Y87.13 E0.019
G1 X35.775 Y86.581 E0.022
G1 X35.469 Y86.038 E0.021
G1 X35.206 Y85.474 E0.021
G1 X34.986 Y84.892 E0.02
G1 X34.812 Y84.297 E0.021
G1 X34.681 Y83.687 E0.021
G1 X34.599 Y83.069 E0.02
G1 X34.564 Y82.449 E0.021
G1 X34.575 Y81.828 E0.021
G1 X34.634 Y81.209 E0.02
G1 X34.739 Y80.598 E0.021
G1 X34.879 Y80.033 E0.019
G1 X35.087 Y79.405 E0.022
G1 X35.327 Y78.833 E0.021
G1 X35.59 Y78.314 E0.019
G1 X35.934 Y77.749 E0.022
G1 X36.273 Y77.276 E0.02
G1 X36.699 Y76.768 E0.022
G1 X37.135 Y76.324 E0.02
G1 X37.602 Y75.915 E0.021
G1 X38.067 Y75.566 E0.019
G1 X38.587 Y75.232 E0.021
G1 X39.133 Y74.936 E0.021
G1 X39.703 Y74.681 E0.02
G1 X40.328 Y74.458 E0.022
G1 X40.931 Y74.295 E0.021
G1 X41.543 Y74.179 E0.021
G1 X42.158 Y74.111 E0.02
G1 X42.736 Y74.088 E0.02
G1 X43.357 Y74.11 E0.02
G1 X44.016 Y74.184 E0.022
G1 X44.58 Y74.292 E0.02
G1 X45.777 Y72.042 E0.084
G1 X45.569 Y71.892 E0.009
G1 X44.95 Y71.392 E0.026
G1 X44.323 Y70.822 E0.028
G1 X43.804 Y70.299 E0.025
G1 X43.275 Y69.708 E0.026
G1 X42.778 Y69.088 E0.027
G1 X42.317 Y68.442 E0.026
G1 X41.889 Y67.771 E0.027
G1 X41.476 Y67.03 E0.028
G1 X41.15 Y66.369 E0.024
G1 X40.837 Y65.64 E0.027
G1 X40.564 Y64.895 E0.026
G1 X40.332 Y64.137 E0.027
G1 X40.141 Y63.367 E0.026
G1 X39.992 Y62.587 E0.026
G1 X39.885 Y61.799 E0.027
G1 X39.821 Y61.008 E0.026
G1 X39.8 Y60.234 E0.026
G1 Y57.415 E0.094
G1 X39.2 E0.02
G1 Y63.291 E0.195
G1 X36.962 Y63.996 E0.078
G1 X23.711 Y45.072 E0.768
G1 X23.383 Y44.564 E0.021
G1 X23.081 Y44.011 E0.021
G1 X22.819 Y43.435 E0.021
G1 X22.602 Y42.841 E0.021
G1 X22.43 Y42.236 E0.021
G1 X22.303 Y41.617 E0.021
G1 X22.222 Y40.991 E0.021
G1 X22.188 Y40.358 E0.021
G1 X22.201 Y39.729 E0.021
G1 X22.26 Y39.101 E0.021
G1 X22.367 Y38.477 E0.021
G1 X22.519 Y37.865 E0.021
G1 X22.715 Y37.267 E0.021
G1 X22.956 Y36.68 E0.021
G1 X23.26 Y36.081 E0.022
G1 X23.564 Y35.576 E0.02
G1 X23.927 Y35.06 E0.021
G1 X24.329 Y34.572 E0.021
G1 X24.762 Y34.118 E0.02
;rapid-leaky
G0 X25.041 Y34.404 F3000
;bead-skirt/brim
G1 X25.489 Y34 F960 E0.021
G1 X25.966 Y33.631 E0.02
G1 X26.465 Y33.299 E0.02
G1 X26.99 Y33.004 E0.02
G1 X27.535 Y32.749 E0.02
G1 X28.097 Y32.535 E0.02
G1 X28.677 Y32.363 E0.02
G1 X29.304 Y32.23 E0.021
G1 X29.858 Y32.152 E0.019
G1 X30.459 Y32.112 E0.02
G1 X31.061 Y32.117 E0.02
G1 X31.66 Y32.166 E0.02
G1 X32.254 Y32.26 E0.02
G1 X32.84 Y32.398 E0.02
G1 X33.452 Y32.592 E0.021
G1 X33.973 Y32.801 E0.019
G1 X34.513 Y33.065 E0.02
G1 X35.032 Y33.368 E0.02
G1 X35.562 Y33.733 E0.021
G1 X36.031 Y34.113 E0.02
G1 X36.468 Y34.525 E0.02
G1 X36.848 Y34.938 E0.019
G1 X37.222 Y35.409 E0.02
G1 X37.582 Y35.941 E0.021
G1 X37.879 Y36.463 E0.02
G1 X38.122 Y36.969 E0.019
G1 X38.341 Y37.527 E0.02
G1 X38.52 Y38.101 E0.02
G1 X38.592 Y38.415 E0.01
G1 X40.2 E0.054
G1 Y35.201 E0.107
G1 X40.221 Y34.439 E0.025
G1 X40.291 Y33.614 E0.028
G1 X40.388 Y32.901 E0.024
G1 X40.534 Y32.141 E0.025
G1 X40.721 Y31.39 E0.026
G1 X40.948 Y30.649 E0.026
G1 X41.216 Y29.922 E0.026
G1 X41.521 Y29.211 E0.025
G1 X41.865 Y28.516 E0.026
G1 X42.247 Y27.842 E0.026
G1 X42.664 Y27.19 E0.026
G1 X43.116 Y26.561 E0.026
G1 X43.601 Y25.957 E0.025
G1 X44.118 Y25.381 E0.026
G1 X44.666 Y24.833 E0.026
G1 X45.242 Y24.316 E0.026
G1 X45.846 Y23.831 E0.025
G1 X46.475 Y23.379 E0.026
G1 X47.129 Y22.961 E0.026
G1 X47.851 Y22.555 E0.027
G1 X48.495 Y22.236 E0.024
G1 X49.207 Y21.931 E0.026
G1 X49.934 Y21.663 E0.026
G1 X50.675 Y21.436 E0.026
G1 X51.426 Y21.249 E0.025
G1 X52.186 Y21.103 E0.026
G1 X52.954 Y20.998 E0.026
G1 X53.727 Y20.936 E0.026
G1 X54.556 Y20.916 E0.027
G1 X55.275 Y20.936 E0.024
G1 X56.046 Y20.998 E0.026
G1 X56.814 Y21.103 E0.026
G1 X57.574 Y21.249 E0.025
G1 X58.325 Y21.436 E0.026
G1 X59.066 Y21.663 E0.026
G1 X59.793 Y21.931 E0.026
G1 X60.505 Y22.236 E0.025
G1 X61.199 Y22.58 E0.026
G1 X61.873 Y22.962 E0.026
G1 X62.525 Y23.379 E0.026
G1 X63.154 Y23.831 E0.026
G1 X63.758 Y24.316 E0.025
G1 X64.334 Y24.833 E0.026
G1 X64.882 Y25.381 E0.026
G1 X65.399 Y25.957 E0.026
G1 X65.886 Y26.562 E0.025
G1 X66.366 Y27.236 E0.028
G1 X66.753 Y27.842 E0.024
G1 X67.135 Y28.516 E0.026
G1 X67.479 Y29.211 E0.025
G1 X67.785 Y29.923 E0.026
G1 X68.069 Y30.701 E0.028
G1 X68.279 Y31.39 E0.024
G1 X68.466 Y32.141 E0.025
G1 X68.612 Y32.901 E0.026
G1 X68.717 Y33.669 E0.026
G1 X68.779 Y34.441 E0.026
G1 X68.8 Y35.201 E0.025
G1 Y38.415 E0.107
G1 X70.407 E0.053
G1 X70.469 Y38.143 E0.01
G1 X70.645 Y37.568 E0.02
G1 X70.878 Y36.969 E0.021
G1 X71.141 Y36.425 E0.02
G1 X71.442 Y35.905 E0.02
G1 X71.778 Y35.41 E0.02
G1 X72.127 Y34.967 E0.019
G1 X72.561 Y34.497 E0.021
G1 X72.969 Y34.113 E0.019
G1 X73.437 Y33.733 E0.02
G1 X73.933 Y33.391 E0.02
G1 X74.486 Y33.065 E0.021
G1 X75.027 Y32.801 E0.02
G1 X75.548 Y32.592 E0.019
G1 X76.16 Y32.398 E0.021
G1 X76.746 Y32.26 E0.02
G1 X77.339 Y32.167 E0.02
G1 X77.898 Y32.12 E0.019
G1 X78.54 Y32.112 E0.021
G1 X79.143 Y32.152 E0.02
G1 X79.738 Y32.236 E0.02
G1 X80.324 Y32.363 E0.02
G1 X80.863 Y32.522 E0.019
G1 X81.462 Y32.749 E0.021
G1 X82.01 Y33.004 E0.02
G1 X82.535 Y33.299 E0.02
G1 X83.034 Y33.631 E0.02
G1 X83.511 Y34 E0.02
G1 X83.958 Y34.404 E0.02
G1 X84.344 Y34.808 E0.019
G1 X84.754 Y35.301 E0.021
G1 X85.101 Y35.794 E0.02
G1 X85.39 Y36.275 E0.019
G1 X85.68 Y36.847 E0.021
G1 X85.91 Y37.405 E0.02
G1 X86.097 Y37.975 E0.02
G1 X86.232 Y38.518 E0.019
G1 X86.343 Y39.151 E0.021
G1 X86.399 Y39.752 E0.02
G1 X86.412 Y40.352 E0.02
G1 X86.38 Y40.954 E0.02
G1 X86.302 Y41.551 E0.02
G1 X86.181 Y42.141 E0.02
G1 X86.017 Y42.718 E0.02
G1 X85.81 Y43.284 E0.02
G1 X85.561 Y43.832 E0.02
G1 X85.293 Y44.323 E0.019
G1 X84.958 Y44.847 E0.021
G1 X72.025 Y63.318 E0.75
G1 X70.2 E0.06
G1 Y57.015 E0.21
G1 X68.8 E0.047
G1 Y60.228 E0.106
G1 X68.78 Y60.987 E0.026
G1 X68.718 Y61.756 E0.025
G1 X68.613 Y62.523 E0.026
G1 X68.468 Y63.281 E0.026
G1 X68.282 Y64.03 E0.025
G1 X68.056 Y64.768 E0.026
G1 X67.791 Y65.492 E0.026
G1 X67.487 Y66.202 E0.025
G1 X67.17 Y66.844 E0.024
G1 X66.767 Y67.566 E0.028
G1 X66.351 Y68.219 E0.025
G1 X65.903 Y68.847 E0.026
G1 X65.419 Y69.449 E0.026
G1 X64.905 Y70.025 E0.026
G1 X64.4 Y70.533 E0.023
G1 X63.789 Y71.089 E0.028
G1 X63.188 Y71.575 E0.026
G1 X62.707 Y71.923 E0.019
G1 X64.216 Y74.76 E0.107
G1 X64.502 Y74.684 E0.01
G1 X65.043 Y74.58 E0.018
G1 X65.629 Y74.512 E0.02
G1 X66.22 Y74.488 E0.02
G1 X66.811 Y74.51 E0.019
G1 X67.44 Y74.581 E0.021
G1 X67.983 Y74.686 E0.019
G1 X68.592 Y74.853 E0.021
G1 X69.149 Y75.053 E0.019
G1 X69.688 Y75.294 E0.02
G1 X70.171 Y75.554 E0.018
G1 X70.669 Y75.87 E0.02
G1 X71.145 Y76.225 E0.02
G1 X71.591 Y76.616 E0.019
G1 X72.032 Y77.067 E0.021
G1 X72.387 Y77.49 E0.019
G1 X72.731 Y77.968 E0.019
G1 X73.04 Y78.473 E0.02
G1 X73.31 Y78.999 E0.02
G1 X73.538 Y79.545 E0.019
G1 X73.737 Y80.145 E0.021
G1 X73.878 Y80.722 E0.02
G1 X73.975 Y81.306 E0.02
G1 X74.027 Y81.894 E0.02
G1 X74.035 Y82.443 E0.018
G1 X74.002 Y83.031 E0.019
G1 X73.924 Y83.619 E0.02
G1 X73.8 Y84.199 E0.02
G1 X73.634 Y84.765 E0.019
G1 X73.424 Y85.321 E0.02
G1 X73.155 Y85.891 E0.021
G1 X72.885 Y86.37 E0.018
G1 X72.557 Y86.861 E0.02
G1 X72.191 Y87.328 E0.02
G1 X71.793 Y87.763 E0.019
G1 X71.363 Y88.169 E0.02
G1 X70.9 Y88.542 E0.02
G1 X70.38 Y88.897 E0.021
G1 X69.903 Y89.175 E0.018
G1 X69.372 Y89.431 E0.02
G1 X68.82 Y89.65 E0.02
G1 X68.216 Y89.833 E0.021
G1 X67.68 Y89.954 E0.018
G1 X67.093 Y90.043 E0.02
G1 X66.462 Y90.085 E0.021
G1 X65.913 Y90.083 E0.018
G1 X65.322 Y90.036 E0.02
G1 X64.74 Y89.944 E0.019
G1 X64.163 Y89.809 E0.02
G1 X63.6 Y89.63 E0.02
G1 X63.052 Y89.41 E0.019
G1 X62.52 Y89.148 E0.02
G1 X62.012 Y88.846 E0.02
G1 X61.561 Y88.532 E0.018
G1 X61.071 Y88.135 E0.021
G1 X60.641 Y87.724 E0.02
G1 X60.273 Y87.316 E0.018
G1 X59.886 Y86.818 E0.021
G1 X59.559 Y86.322 E0.02
G1 X59.274 Y85.804 E0.019
G1 X59.044 Y85.305 E0.019
G1 X58.822 Y84.714 E0.021
G1 X58.66 Y84.144 E0.019
G1 X58.541 Y83.564 E0.02
G1 X58.466 Y82.978 E0.02
G1 X58.437 Y82.427 E0.018
G1 X58.452 Y81.798 E0.021
G1 X58.511 Y81.206 E0.02
G1 X58.616 Y80.625 E0.019
G1 X58.752 Y80.092 E0.019
G1 X58.954 Y79.494 E0.021
G1 X59.187 Y78.95 E0.019
G1 X59.44 Y78.461 E0.019
G1 X59.75 Y77.957 E0.019
G1 X60.121 Y77.446 E0.021
G1 X60.508 Y76.995 E0.02
G1 X60.925 Y76.577 E0.02
G1 X61.126 Y76.403 E0.008
G1 X59.616 Y73.565 E0.107
G1 X59.057 Y73.77 E0.02
G1 X58.318 Y73.997 E0.026
G1 X57.567 Y74.183 E0.026
G1 X56.809 Y74.328 E0.025
G1 X56.043 Y74.433 E0.026
G1 X55.272 Y74.495 E0.026
G1 X54.5 Y74.515 E0.025
G1 X53.728 Y74.495 E0.026
G1 X52.957 Y74.433 E0.026
G1 X52.191 Y74.328 E0.026
G1 X51.433 Y74.183 E0.025
G1 X50.682 Y73.997 E0.026
G1 X49.943 Y73.77 E0.026
G1 X49.384 Y73.565 E0.019
G1 X47.874 Y76.403 E0.107
G1 X48.075 Y76.577 E0.009
G1 X48.492 Y76.995 E0.02
G1 X48.879 Y77.446 E0.02
G1 X49.249 Y77.956 E0.021
G1 X49.54 Y78.425 E0.018
G1 X49.813 Y78.95 E0.02
G1 X50.06 Y79.532 E0.021
G1 X50.248 Y80.093 E0.019
G1 X50.384 Y80.627 E0.019
G1 X50.493 Y81.248 E0.021
G1 X50.548 Y81.796 E0.018
G1 X50.564 Y82.386 E0.02
G1 X50.534 Y82.977 E0.019
G1 X50.459 Y83.564 E0.02
G1 X50.34 Y84.144 E0.02
G1 X50.178 Y84.714 E0.019
G1 X49.956 Y85.305 E0.021
G1 X49.726 Y85.804 E0.019
G1 X49.441 Y86.322 E0.019
G1 X49.114 Y86.818 E0.02
G1 X48.727 Y87.316 E0.021
G1 X48.359 Y87.724 E0.018
G1 X47.929 Y88.135 E0.02
G1 X47.439 Y88.532 E0.021
G1 X46.988 Y88.846 E0.018
G1 X46.48 Y89.148 E0.02
G1 X45.948 Y89.41 E0.02
G1 X45.4 Y89.63 E0.019
G1 X44.837 Y89.809 E0.02
G1 X44.26 Y89.944 E0.02
G1 X43.678 Y90.036 E0.019
G1 X43.128 Y90.08 E0.019
G1 X42.499 Y90.085 E0.021
G1 X41.904 Y90.043 E0.019
G1 X41.32 Y89.954 E0.02
G1 X40.784 Y89.833 E0.018
G1 X40.18 Y89.65 E0.021
G1 X39.628 Y89.431 E0.02
G1 X39.134 Y89.193 E0.018
G1 X38.587 Y88.877 E0.021
G1 X38.099 Y88.542 E0.02
G1 X37.669 Y88.196 E0.018
G1 X37.209 Y87.765 E0.021
G1 X36.809 Y87.329 E0.02
G1 X36.468 Y86.895 E0.018
G1 X36.116 Y86.371 E0.021
G1 X35.825 Y85.855 E0.02
G1 X35.575 Y85.318 E0.02
G1 X35.366 Y84.765 E0.019
G1 X35.2 Y84.199 E0.02
G1 X35.076 Y83.619 E0.02
G1 X34.998 Y83.031 E0.02
G1 X34.965 Y82.441 E0.019
G1 X34.975 Y81.851 E0.02
G1 X35.031 Y81.262 E0.019
G1 X35.131 Y80.68 E0.02
G1 X35.264 Y80.144 E0.018
G1 X35.462 Y79.545 E0.021
G1 X35.69 Y79.001 E0.02
G1 X35.94 Y78.509 E0.018
G1 X36.267 Y77.97 E0.021
G1 X36.59 Y77.521 E0.019
G1 X36.995 Y77.037 E0.021
G1 X37.41 Y76.615 E0.019
G1 X37.854 Y76.226 E0.02
G1 X38.296 Y75.894 E0.018
G1 X38.791 Y75.576 E0.02
G1 X39.311 Y75.295 E0.02
G1 X39.852 Y75.052 E0.019
G1 X40.448 Y74.84 E0.021
G1 X41.021 Y74.686 E0.02
G1 X41.602 Y74.575 E0.02
G1 X42.188 Y74.51 E0.02
G1 X42.737 Y74.488 E0.018
G1 X43.327 Y74.509 E0.019
G1 X43.955 Y74.58 E0.021
G1 X44.498 Y74.684 E0.019
G1 X44.784 Y74.76 E0.01
G1 X46.293 Y71.923 E0.107
G1 X45.812 Y71.575 E0.019
G1 X45.211 Y71.089 E0.026
G1 X44.6 Y70.533 E0.028
G1 X44.095 Y70.025 E0.023
G1 X43.581 Y69.449 E0.026
G1 X43.097 Y68.847 E0.026
G1 X42.649 Y68.219 E0.025
G1 X42.233 Y67.566 E0.026
G1 X41.83 Y66.844 E0.028
G1 X41.513 Y66.202 E0.023
G1 X41.209 Y65.492 E0.026
G1 X40.944 Y64.768 E0.026
G1 X40.718 Y64.03 E0.025
G1 X40.532 Y63.281 E0.026
G1 X40.387 Y62.523 E0.026
G1 X40.282 Y61.756 E0.026
G1 X40.22 Y60.987 E0.025
G1 X40.2 Y60.228 E0.025
G1 Y57.015 E0.107
G1 X38.8 E0.047
G1 Y62.998 E0.199
G1 X37.122 Y63.527 E0.058
G1 X24.043 Y44.849 E0.759
G1 X23.727 Y44.36 E0.019
G1 X23.439 Y43.832 E0.02
G1 X23.19 Y43.284 E0.02
G1 X22.983 Y42.718 E0.02
G1 X22.819 Y42.141 E0.02
G1 X22.698 Y41.551 E0.02
G1 X22.62 Y40.954 E0.02
G1 X22.588 Y40.352 E0.02
G1 X22.601 Y39.752 E0.02
G1 X22.657 Y39.153 E0.02
G1 X22.759 Y38.559 E0.02
G1 X22.903 Y37.975 E0.02
G1 X23.09 Y37.405 E0.02
G1 X23.32 Y36.847 E0.02
G1 X23.61 Y36.275 E0.022
G1 X23.899 Y35.794 E0.018
G1 X24.245 Y35.302 E0.02
G1 X24.628 Y34.838 E0.02
G1 X25.041 Y34.404 E0.02
;rapid-leaky
G0 X25.321 Y34.691 F3000
;bead-skirt/brim
G1 X25.746 Y34.307 F960 E0.019
G1 X26.199 Y33.956 E0.019
G1 X26.674 Y33.64 E0.019
G1 X27.173 Y33.36 E0.019
G1 X27.691 Y33.118 E0.019
G1 X28.226 Y32.914 E0.019
G1 X28.776 Y32.751 E0.019
G1 X29.374 Y32.624 E0.021
G1 X29.899 Y32.55 E0.017
G1 X30.47 Y32.512 E0.019
G1 X31.042 Y32.517 E0.02
G1 X31.612 Y32.564 E0.019
G1 X32.177 Y32.653 E0.019
G1 X32.734 Y32.784 E0.019
G1 X33.317 Y32.969 E0.02
G1 X33.811 Y33.167 E0.018
G1 X34.324 Y33.418 E0.019
G1 X34.818 Y33.706 E0.019
G1 X35.323 Y34.053 E0.02
G1 X35.767 Y34.414 E0.019
G1 X36.183 Y34.806 E0.019
G1 X36.543 Y35.198 E0.018
G1 X36.899 Y35.646 E0.019
G1 X37.242 Y36.153 E0.02
G1 X37.525 Y36.648 E0.019
G1 X37.755 Y37.128 E0.018
G1 X37.963 Y37.66 E0.019
G1 X38.134 Y38.205 E0.019
G1 X38.27 Y38.815 E0.021
G1 X40.6 E0.077
G1 Y35.207 E0.12
G1 X40.621 Y34.461 E0.025
G1 X40.688 Y33.658 E0.027
G1 X40.783 Y32.966 E0.023
G1 X40.925 Y32.227 E0.025
G1 X41.107 Y31.497 E0.025
G1 X41.327 Y30.776 E0.025
G1 X41.587 Y30.07 E0.025
G1 X41.884 Y29.379 E0.025
G1 X42.219 Y28.704 E0.025
G1 X42.59 Y28.048 E0.025
G1 X42.995 Y27.414 E0.025
G1 X43.434 Y26.803 E0.025
G1 X43.906 Y26.216 E0.025
G1 X44.408 Y25.656 E0.025
G1 X44.941 Y25.123 E0.025
G1 X45.501 Y24.621 E0.025
G1 X46.088 Y24.149 E0.026
G1 X46.699 Y23.71 E0.025
G1 X47.334 Y23.304 E0.025
G1 X48.038 Y22.909 E0.026
G1 X48.663 Y22.599 E0.024
G1 X49.355 Y22.302 E0.025
G1 X50.061 Y22.042 E0.025
G1 X50.782 Y21.822 E0.025
G1 X51.512 Y21.64 E0.025
G1 X52.251 Y21.498 E0.025
G1 X52.997 Y21.396 E0.025
G1 X53.748 Y21.336 E0.025
G1 X54.555 Y21.316 E0.027
G1 X55.253 Y21.336 E0.023
G1 X56.003 Y21.396 E0.025
G1 X56.749 Y21.498 E0.025
G1 X57.488 Y21.64 E0.025
G1 X58.218 Y21.822 E0.025
G1 X58.939 Y22.042 E0.025
G1 X59.645 Y22.302 E0.025
G1 X60.337 Y22.599 E0.025
G1 X61.011 Y22.934 E0.025
G1 X61.667 Y23.305 E0.025
G1 X62.301 Y23.71 E0.025
G1 X62.912 Y24.149 E0.025
G1 X63.499 Y24.621 E0.025
G1 X64.059 Y25.123 E0.026
G1 X64.592 Y25.656 E0.025
G1 X65.094 Y26.216 E0.025
G1 X65.567 Y26.804 E0.025
G1 X66.034 Y27.46 E0.026
G1 X66.41 Y28.048 E0.024
G1 X66.781 Y28.704 E0.025
G1 X67.116 Y29.379 E0.025
G1 X67.413 Y30.071 E0.025
G1 X67.689 Y30.828 E0.027
G1 X67.893 Y31.497 E0.023
G1 X68.075 Y32.227 E0.025
G1 X68.217 Y32.966 E0.025
G1 X68.319 Y33.712 E0.025
G1 X68.379 Y34.463 E0.025
G1 X68.4 Y35.207 E0.025
G1 Y38.815 E0.12
G1 X70.73 E0.077
G1 X70.856 Y38.246 E0.02
G1 X71.023 Y37.699 E0.019
G1 X71.245 Y37.128 E0.02
G1 X71.494 Y36.612 E0.019
G1 X71.781 Y36.118 E0.019
G1 X72.101 Y35.646 E0.019
G1 X72.431 Y35.227 E0.018
G1 X72.845 Y34.778 E0.02
G1 X73.233 Y34.414 E0.018
G1 X73.677 Y34.054 E0.019
G1 X74.148 Y33.728 E0.019
G1 X74.675 Y33.418 E0.02
G1 X75.189 Y33.167 E0.019
G1 X75.683 Y32.969 E0.018
G1 X76.266 Y32.784 E0.02
G1 X76.823 Y32.653 E0.019
G1 X77.387 Y32.564 E0.019
G1 X77.917 Y32.519 E0.018
G1 X78.529 Y32.512 E0.02
G1 X79.101 Y32.55 E0.02
G1 X79.667 Y32.63 E0.019
G1 X80.225 Y32.751 E0.018
G1 X80.736 Y32.902 E0.018
G1 X81.307 Y33.118 E0.021
G1 X81.827 Y33.36 E0.019
G1 X82.326 Y33.64 E0.019
G1 X82.801 Y33.956 E0.019
G1 X83.254 Y34.307 E0.019
G1 X83.679 Y34.691 E0.019
G1 X84.045 Y35.074 E0.017
G1 X84.436 Y35.544 E0.021
G1 X84.765 Y36.012 E0.019
G1 X85.039 Y36.468 E0.017
G1 X85.316 Y37.014 E0.021
G1 X85.534 Y37.544 E0.019
G1 X85.712 Y38.086 E0.019
G1 X85.84 Y38.601 E0.017
G1 X85.946 Y39.204 E0.021
G1 X85.999 Y39.775 E0.019
G1 X86.011 Y40.346 E0.019
G1 X85.981 Y40.918 E0.019
G1 X85.907 Y41.485 E0.019
G1 X85.792 Y42.046 E0.019
G1 X85.636 Y42.594 E0.019
G1 X85.44 Y43.132 E0.019
G1 X85.203 Y43.653 E0.019
G1 X84.949 Y44.12 E0.018
G1 X84.626 Y44.625 E0.02
G1 X71.816 Y62.918 E0.742
G1 X70.6 E0.041
G1 Y56.615 E0.209
G1 X68.4 E0.074
G1 Y60.223 E0.12
G1 X68.38 Y60.965 E0.024
G1 X68.32 Y61.713 E0.025
G1 X68.218 Y62.458 E0.025
G1 X68.077 Y63.195 E0.025
G1 X67.896 Y63.923 E0.025
G1 X67.677 Y64.64 E0.025
G1 X67.419 Y65.345 E0.025
G1 X67.123 Y66.034 E0.025
G1 X66.815 Y66.658 E0.023
G1 X66.423 Y67.361 E0.027
G1 X66.019 Y67.995 E0.025
G1 X65.584 Y68.605 E0.025
G1 X65.114 Y69.191 E0.025
G1 X64.614 Y69.751 E0.025
G1 X64.124 Y70.244 E0.023
G1 X63.529 Y70.785 E0.027
G1 X62.945 Y71.257 E0.025
G1 X62.184 Y71.792 E0.031
G1 X64.013 Y75.232 E0.129
G1 X64.592 Y75.074 E0.02
G1 X65.104 Y74.976 E0.018
G1 X65.66 Y74.911 E0.018
G1 X66.221 Y74.889 E0.019
G1 X66.782 Y74.909 E0.018
G1 X67.379 Y74.976 E0.02
G1 X67.892 Y75.076 E0.018
G1 X68.472 Y75.234 E0.02
G1 X68.999 Y75.424 E0.018
G1 X69.511 Y75.653 E0.019
G1 X69.969 Y75.9 E0.017
G1 X70.442 Y76.2 E0.019
G1 X70.893 Y76.536 E0.019
G1 X71.316 Y76.907 E0.018
G1 X71.735 Y77.336 E0.02
G1 X72.071 Y77.736 E0.018
G1 X72.398 Y78.189 E0.018
G1 X72.691 Y78.668 E0.019
G1 X72.947 Y79.168 E0.019
G1 X73.163 Y79.686 E0.018
G1 X73.352 Y80.256 E0.02
G1 X73.486 Y80.802 E0.019
G1 X73.578 Y81.356 E0.019
G1 X73.628 Y81.915 E0.018
G1 X73.635 Y82.434 E0.018
G1 X73.604 Y82.994 E0.018
G1 X73.53 Y83.55 E0.019
G1 X73.412 Y84.1 E0.019
G1 X73.254 Y84.637 E0.018
G1 X73.056 Y85.164 E0.019
G1 X72.799 Y85.707 E0.02
G1 X72.544 Y86.16 E0.017
G1 X72.233 Y86.627 E0.019
G1 X71.886 Y87.069 E0.019
G1 X71.508 Y87.482 E0.018
G1 X71.1 Y87.867 E0.019
G1 X70.661 Y88.221 E0.019
G1 X70.166 Y88.559 E0.02
G1 X69.715 Y88.821 E0.017
G1 X69.211 Y89.065 E0.019
G1 X68.688 Y89.272 E0.018
G1 X68.113 Y89.446 E0.02
G1 X67.606 Y89.561 E0.018
G1 X67.05 Y89.645 E0.018
G1 X66.45 Y89.685 E0.02
G1 X65.93 Y89.683 E0.018
G1 X65.369 Y89.638 E0.018
G1 X64.817 Y89.551 E0.019
G1 X64.269 Y89.423 E0.019
G1 X63.735 Y89.253 E0.018
G1 X63.215 Y89.044 E0.019
G1 X62.711 Y88.796 E0.019
G1 X62.229 Y88.51 E0.018
G1 X61.802 Y88.212 E0.018
G1 X61.335 Y87.834 E0.02
G1 X60.928 Y87.445 E0.018
G1 X60.58 Y87.059 E0.018
G1 X60.211 Y86.585 E0.02
G1 X59.902 Y86.115 E0.018
G1 X59.631 Y85.623 E0.019
G1 X59.414 Y85.151 E0.017
G1 X59.203 Y84.589 E0.02
G1 X59.049 Y84.049 E0.019
G1 X58.936 Y83.498 E0.019
G1 X58.865 Y82.943 E0.018
G1 X58.838 Y82.422 E0.017
G1 X58.852 Y81.822 E0.02
G1 X58.907 Y81.262 E0.019
G1 X59.007 Y80.71 E0.019
G1 X59.136 Y80.206 E0.017
G1 X59.328 Y79.637 E0.02
G1 X59.549 Y79.121 E0.019
G1 X59.788 Y78.658 E0.017
G1 X60.083 Y78.18 E0.019
G1 X60.436 Y77.694 E0.02
G1 X60.802 Y77.266 E0.018
G1 X61.198 Y76.87 E0.019
G1 X61.63 Y76.5 E0.019
G1 X59.801 Y73.061 E0.13
G1 X58.929 Y73.391 E0.031
G1 X58.211 Y73.611 E0.025
G1 X57.482 Y73.792 E0.025
G1 X56.744 Y73.933 E0.025
G1 X56 Y74.035 E0.025
G1 X55.25 Y74.095 E0.025
G1 X54.5 Y74.115 E0.025
G1 X53.75 Y74.095 E0.024
G1 X53 Y74.035 E0.025
G1 X52.256 Y73.933 E0.025
G1 X51.518 Y73.792 E0.025
G1 X50.789 Y73.611 E0.025
G1 X50.071 Y73.391 E0.025
G1 X49.199 Y73.061 E0.031
G1 X47.37 Y76.5 E0.13
G1 X47.802 Y76.87 E0.019
G1 X48.198 Y77.266 E0.019
G1 X48.564 Y77.694 E0.018
G1 X48.916 Y78.179 E0.02
G1 X49.192 Y78.623 E0.018
G1 X49.451 Y79.121 E0.018
G1 X49.686 Y79.674 E0.02
G1 X49.864 Y80.206 E0.019
G1 X49.993 Y80.712 E0.017
G1 X50.097 Y81.302 E0.02
G1 X50.148 Y81.821 E0.018
G1 X50.163 Y82.381 E0.018
G1 X50.135 Y82.942 E0.019
G1 X50.064 Y83.498 E0.019
G1 X49.951 Y84.049 E0.018
G1 X49.797 Y84.589 E0.019
G1 X49.586 Y85.151 E0.02
G1 X49.369 Y85.623 E0.017
G1 X49.098 Y86.115 E0.019
G1 X48.789 Y86.585 E0.019
G1 X48.42 Y87.059 E0.02
G1 X48.072 Y87.445 E0.017
G1 X47.665 Y87.834 E0.019
G1 X47.198 Y88.212 E0.02
G1 X46.771 Y88.51 E0.017
G1 X46.289 Y88.796 E0.018
G1 X45.785 Y89.044 E0.019
G1 X45.265 Y89.253 E0.019
G1 X44.731 Y89.423 E0.018
G1 X44.183 Y89.551 E0.019
G1 X43.631 Y89.638 E0.019
G1 X43.111 Y89.68 E0.017
G1 X42.511 Y89.685 E0.02
G1 X41.949 Y89.645 E0.019
G1 X41.394 Y89.561 E0.018
G1 X40.887 Y89.446 E0.018
G1 X40.312 Y89.272 E0.02
G1 X39.789 Y89.065 E0.018
G1 X39.321 Y88.839 E0.018
G1 X38.801 Y88.539 E0.02
G1 X38.338 Y88.221 E0.018
G1 X37.931 Y87.894 E0.018
G1 X37.493 Y87.483 E0.02
G1 X37.114 Y87.07 E0.018
G1 X36.792 Y86.659 E0.018
G1 X36.457 Y86.161 E0.02
G1 X36.181 Y85.672 E0.018
G1 X35.944 Y85.163 E0.019
G1 X35.746 Y84.638 E0.019
G1 X35.588 Y84.1 E0.018
G1 X35.47 Y83.55 E0.019
G1 X35.396 Y82.994 E0.019
G1 X35.365 Y82.434 E0.018
G1 X35.374 Y81.873 E0.019
G1 X35.428 Y81.315 E0.019
G1 X35.522 Y80.762 E0.018
G1 X35.648 Y80.255 E0.018
G1 X35.837 Y79.686 E0.02
G1 X36.053 Y79.169 E0.018
G1 X36.289 Y78.704 E0.018
G1 X36.601 Y78.191 E0.02
G1 X36.906 Y77.767 E0.017
G1 X37.291 Y77.306 E0.02
G1 X37.685 Y76.906 E0.019
G1 X38.107 Y76.537 E0.018
G1 X38.524 Y76.223 E0.018
G1 X38.995 Y75.921 E0.018
G1 X39.488 Y75.654 E0.019
G1 X40.001 Y75.424 E0.019
G1 X40.567 Y75.222 E0.02
G1 X41.11 Y75.076 E0.018
G1 X41.662 Y74.971 E0.019
G1 X42.218 Y74.909 E0.019
G1 X42.738 Y74.889 E0.017
G1 X43.298 Y74.908 E0.019
G1 X43.895 Y74.975 E0.02
G1 X44.408 Y75.074 E0.017
G1 X44.987 Y75.232 E0.02
G1 X46.816 Y71.792 E0.129
G1 X46.055 Y71.257 E0.031
G1 X45.471 Y70.785 E0.025
G1 X44.876 Y70.244 E0.027
G1 X44.386 Y69.751 E0.023
G1 X43.886 Y69.191 E0.025
G1 X43.416 Y68.605 E0.025
G1 X42.98 Y67.995 E0.025
G1 X42.577 Y67.361 E0.025
G1 X42.185 Y66.658 E0.027
G1 X41.877 Y66.034 E0.023
G1 X41.581 Y65.345 E0.025
G1 X41.323 Y64.64 E0.025
G1 X41.104 Y63.923 E0.025
G1 X40.923 Y63.195 E0.025
G1 X40.782 Y62.458 E0.025
G1 X40.68 Y61.713 E0.025
G1 X40.62 Y60.965 E0.025
G1 X40.6 Y60.223 E0.024
G1 Y56.615 E0.12
G1 X38.4 E0.074
G1 Y62.704 E0.202
G1 X37.281 Y63.057 E0.039
G1 X24.375 Y44.626 E0.748
G1 X24.071 Y44.155 E0.019
G1 X23.797 Y43.653 E0.019
G1 X23.56 Y43.132 E0.019
G1 X23.364 Y42.594 E0.019
G1 X23.208 Y42.046 E0.019
G1 X23.093 Y41.485 E0.019
G1 X23.019 Y40.918 E0.019
G1 X22.989 Y40.346 E0.019
G1 X23.001 Y39.775 E0.019
G1 X23.054 Y39.205 E0.019
G1 X23.15 Y38.641 E0.019
G1 X23.288 Y38.086 E0.019
G1 X23.466 Y37.544 E0.019
G1 X23.684 Y37.014 E0.019
G1 X23.961 Y36.468 E0.021
G1 X24.235 Y36.012 E0.017
G1 X24.564 Y35.545 E0.019
G1 X24.928 Y35.104 E0.019
G1 X25.321 Y34.691 E0.019
;rapid-leaky
G0 X25.6 Y34.978 F3000
;bead-skirt/brim
G1 X26.003 Y34.614 F960 E0.018
G1 X26.432 Y34.281 E0.019
G1 X26.884 Y33.981 E0.018
G1 X27.356 Y33.716 E0.018
G1 X27.847 Y33.487 E0.018
G1 X28.354 Y33.293 E0.018
G1 X28.875 Y33.139 E0.018
G1 X29.443 Y33.018 E0.019
G1 X29.94 Y32.948 E0.017
G1 X30.481 Y32.912 E0.018
G1 X31.024 Y32.917 E0.018
G1 X31.565 Y32.961 E0.018
G1 X32.1 Y33.046 E0.018
G1 X32.627 Y33.17 E0.018
G1 X33.182 Y33.346 E0.019
G1 X33.648 Y33.533 E0.017
G1 X34.135 Y33.771 E0.018
G1 X34.603 Y34.044 E0.018
G1 X35.083 Y34.374 E0.019
G1 X35.504 Y34.715 E0.018
G1 X35.898 Y35.087 E0.018
G1 X36.239 Y35.458 E0.017
G1 X36.576 Y35.883 E0.018
G1 X36.902 Y36.364 E0.02
G1 X37.17 Y36.834 E0.018
G1 X37.388 Y37.288 E0.016
G1 X37.586 Y37.793 E0.018
G1 X37.747 Y38.31 E0.018
G1 X37.869 Y38.838 E0.018
G1 X37.927 Y39.215 E0.013
G1 X41 E0.102
G1 Y35.212 E0.133
G1 X41.02 Y34.484 E0.025
G1 X41.086 Y33.702 E0.026
G1 X41.178 Y33.031 E0.022
G1 X41.316 Y32.313 E0.025
G1 X41.492 Y31.604 E0.024
G1 X41.706 Y30.904 E0.024
G1 X41.959 Y30.218 E0.025
G1 X42.247 Y29.547 E0.024
G1 X42.572 Y28.891 E0.024
G1 X42.933 Y28.255 E0.025
G1 X43.326 Y27.639 E0.024
G1 X43.753 Y27.045 E0.024
G1 X44.211 Y26.475 E0.024
G1 X44.699 Y25.931 E0.025
G1 X45.216 Y25.414 E0.024
G1 X45.76 Y24.926 E0.024
G1 X46.33 Y24.468 E0.025
G1 X46.924 Y24.041 E0.024
G1 X47.54 Y23.647 E0.024
G1 X48.225 Y23.263 E0.027
G1 X48.831 Y22.962 E0.022
G1 X49.503 Y22.674 E0.024
G1 X50.189 Y22.421 E0.025
G1 X50.889 Y22.207 E0.024
G1 X51.598 Y22.031 E0.024
G1 X52.316 Y21.893 E0.025
G1 X53.04 Y21.794 E0.024
G1 X53.77 Y21.735 E0.024
G1 X54.554 Y21.716 E0.026
G1 X55.231 Y21.735 E0.023
G1 X55.96 Y21.794 E0.024
G1 X56.684 Y21.893 E0.025
G1 X57.402 Y22.031 E0.024
G1 X58.111 Y22.207 E0.024
G1 X58.811 Y22.421 E0.024
G1 X59.497 Y22.674 E0.025
G1 X60.169 Y22.962 E0.024
G1 X60.824 Y23.287 E0.024
G1 X61.46 Y23.648 E0.025
G1 X62.076 Y24.041 E0.024
G1 X62.67 Y24.468 E0.024
G1 X63.24 Y24.926 E0.025
G1 X63.784 Y25.414 E0.024
G1 X64.301 Y25.931 E0.024
G1 X64.789 Y26.475 E0.025
G1 X65.247 Y27.045 E0.024
G1 X65.703 Y27.684 E0.026
G1 X66.067 Y28.255 E0.023
G1 X66.428 Y28.891 E0.024
G1 X66.753 Y29.547 E0.024
G1 X67.041 Y30.218 E0.025
G1 X67.31 Y30.956 E0.026
G1 X67.508 Y31.604 E0.022
G1 X67.684 Y32.313 E0.025
G1 X67.822 Y33.031 E0.024
G1 X67.921 Y33.756 E0.024
G1 X67.98 Y34.484 E0.024
G1 X68 Y35.212 E0.025
G1 Y39.215 E0.133
G1 X71.073 E0.102
G1 X71.131 Y38.839 E0.013
G1 X71.243 Y38.349 E0.016
G1 X71.401 Y37.83 E0.018
G1 X71.612 Y37.288 E0.02
G1 X71.848 Y36.799 E0.018
G1 X72.119 Y36.331 E0.018
G1 X72.424 Y35.883 E0.018
G1 X72.736 Y35.487 E0.017
G1 X73.13 Y35.06 E0.019
G1 X73.496 Y34.715 E0.017
G1 X73.917 Y34.374 E0.018
G1 X74.363 Y34.065 E0.018
G1 X74.864 Y33.771 E0.019
G1 X75.352 Y33.533 E0.018
G1 X75.818 Y33.346 E0.017
G1 X76.373 Y33.17 E0.019
G1 X76.9 Y33.046 E0.018
G1 X77.435 Y32.961 E0.018
G1 X77.936 Y32.919 E0.017
G1 X78.518 Y32.912 E0.019
G1 X79.06 Y32.948 E0.018
G1 X79.596 Y33.024 E0.018
G1 X80.126 Y33.139 E0.018
G1 X80.609 Y33.281 E0.017
G1 X81.152 Y33.487 E0.019
G1 X81.644 Y33.716 E0.019
G1 X82.117 Y33.981 E0.018
G1 X82.568 Y34.281 E0.018
G1 X82.997 Y34.614 E0.018
G1 X83.4 Y34.978 E0.018
G1 X83.746 Y35.341 E0.016
G1 X84.118 Y35.787 E0.02
G1 X84.43 Y36.231 E0.018
G1 X84.689 Y36.662 E0.016
G1 X84.952 Y37.181 E0.02
G1 X85.159 Y37.683 E0.018
G1 X85.327 Y38.197 E0.018
G1 X85.449 Y38.684 E0.017
G1 X85.549 Y39.257 E0.019
G1 X85.6 Y39.798 E0.018
G1 X85.611 Y40.339 E0.018
G1 X85.582 Y40.881 E0.018
G1 X85.512 Y41.419 E0.018
G1 X85.403 Y41.951 E0.018
G1 X85.255 Y42.471 E0.018
G1 X85.069 Y42.981 E0.018
G1 X84.845 Y43.474 E0.018
G1 X84.604 Y43.916 E0.017
G1 X84.293 Y44.402 E0.019
G1 X71.608 Y62.518 E0.736
G1 X71 E0.02
G1 Y56.215 E0.21
G1 X68 E0.099
G1 Y60.218 E0.133
G1 X67.981 Y60.944 E0.025
G1 X67.922 Y61.67 E0.024
G1 X67.823 Y62.393 E0.024
G1 X67.686 Y63.109 E0.024
G1 X67.511 Y63.816 E0.025
G1 X67.298 Y64.513 E0.024
G1 X67.047 Y65.197 E0.024
G1 X66.76 Y65.867 E0.024
G1 X66.461 Y66.472 E0.023
G1 X66.08 Y67.156 E0.026
G1 X65.688 Y67.771 E0.024
G1 X65.265 Y68.364 E0.024
G1 X64.809 Y68.932 E0.025
G1 X64.323 Y69.476 E0.024
G1 X63.847 Y69.955 E0.022
G1 X63.268 Y70.481 E0.026
G1 X62.702 Y70.939 E0.024
G1 X62.154 Y71.335 E0.023
G1 X61.659 Y71.656 E0.02
G1 X63.822 Y75.723 E0.153
G1 X64.17 Y75.601 E0.012
G1 X64.681 Y75.464 E0.018
G1 X65.165 Y75.371 E0.016
G1 X65.691 Y75.31 E0.018
G1 X66.222 Y75.289 E0.017
G1 X66.752 Y75.308 E0.018
G1 X67.318 Y75.372 E0.019
G1 X67.801 Y75.466 E0.016
G1 X68.351 Y75.616 E0.019
G1 X68.85 Y75.795 E0.018
G1 X69.334 Y76.012 E0.018
G1 X69.767 Y76.245 E0.016
G1 X70.215 Y76.529 E0.018
G1 X70.641 Y76.847 E0.017
G1 X71.041 Y77.198 E0.018
G1 X71.438 Y77.605 E0.019
G1 X71.755 Y77.982 E0.016
G1 X72.065 Y78.411 E0.018
G1 X72.342 Y78.864 E0.017
G1 X72.584 Y79.337 E0.018
G1 X72.788 Y79.826 E0.018
G1 X72.967 Y80.367 E0.019
G1 X73.094 Y80.883 E0.017
G1 X73.181 Y81.407 E0.018
G1 X73.228 Y81.936 E0.018
G1 X73.235 Y82.426 E0.016
G1 X73.205 Y82.956 E0.018
G1 X73.135 Y83.482 E0.017
G1 X73.024 Y84.002 E0.018
G1 X72.875 Y84.51 E0.018
G1 X72.687 Y85.008 E0.017
G1 X72.444 Y85.523 E0.019
G1 X72.203 Y85.951 E0.017
G1 X71.908 Y86.392 E0.017
G1 X71.581 Y86.81 E0.018
G1 X71.223 Y87.201 E0.018
G1 X70.837 Y87.566 E0.017
G1 X70.422 Y87.9 E0.018
G1 X69.953 Y88.22 E0.019
G1 X69.527 Y88.468 E0.016
G1 X69.05 Y88.698 E0.018
G1 X68.556 Y88.894 E0.017
G1 X68.011 Y89.059 E0.019
G1 X67.532 Y89.168 E0.017
G1 X67.007 Y89.247 E0.017
G1 X66.437 Y89.285 E0.019
G1 X65.947 Y89.283 E0.017
G1 X65.416 Y89.241 E0.017
G1 X64.894 Y89.158 E0.018
G1 X64.376 Y89.037 E0.018
G1 X63.87 Y88.876 E0.017
G1 X63.378 Y88.679 E0.018
G1 X62.902 Y88.444 E0.018
G1 X62.446 Y88.173 E0.017
G1 X62.043 Y87.892 E0.017
G1 X61.6 Y87.533 E0.019
G1 X61.215 Y87.166 E0.017
G1 X60.887 Y86.802 E0.017
G1 X60.536 Y86.352 E0.019
G1 X60.245 Y85.908 E0.017
G1 X59.988 Y85.443 E0.018
G1 X59.783 Y84.997 E0.016
G1 X59.583 Y84.464 E0.019
G1 X59.438 Y83.954 E0.018
G1 X59.331 Y83.433 E0.017
G1 X59.264 Y82.907 E0.018
G1 X59.238 Y82.416 E0.016
G1 X59.251 Y81.847 E0.019
G1 X59.304 Y81.317 E0.018
G1 X59.398 Y80.795 E0.018
G1 X59.52 Y80.319 E0.016
G1 X59.702 Y79.78 E0.019
G1 X59.911 Y79.292 E0.018
G1 X60.137 Y78.855 E0.016
G1 X60.416 Y78.403 E0.018
G1 X60.75 Y77.942 E0.019
G1 X61.096 Y77.538 E0.017
G1 X61.471 Y77.163 E0.018
G1 X61.843 Y76.841 E0.016
G1 X62.145 Y76.616 E0.013
G1 X59.982 Y72.548 E0.153
G1 X59.486 Y72.761 E0.018
G1 X58.802 Y73.012 E0.024
G1 X58.104 Y73.226 E0.025
G1 X57.396 Y73.401 E0.024
G1 X56.679 Y73.538 E0.024
G1 X55.957 Y73.637 E0.024
G1 X55.229 Y73.696 E0.025
G1 X54.5 Y73.715 E0.024
G1 X53.771 Y73.696 E0.024
G1 X53.043 Y73.637 E0.024
G1 X52.321 Y73.538 E0.025
G1 X51.604 Y73.401 E0.024
G1 X50.896 Y73.226 E0.024
G1 X50.198 Y73.012 E0.024
G1 X49.514 Y72.761 E0.025
G1 X49.018 Y72.548 E0.018
G1 X46.855 Y76.616 E0.153
G1 X47.157 Y76.841 E0.012
G1 X47.529 Y77.163 E0.017
G1 X47.904 Y77.538 E0.017
G1 X48.25 Y77.942 E0.018
G1 X48.584 Y78.402 E0.019
G1 X48.844 Y78.821 E0.016
G1 X49.089 Y79.292 E0.018
G1 X49.311 Y79.816 E0.019
G1 X49.48 Y80.319 E0.018
G1 X49.602 Y80.796 E0.016
G1 X49.7 Y81.357 E0.019
G1 X49.749 Y81.846 E0.016
G1 X49.763 Y82.376 E0.018
G1 X49.736 Y82.907 E0.018
G1 X49.669 Y83.433 E0.017
G1 X49.562 Y83.954 E0.018
G1 X49.417 Y84.464 E0.018
G1 X49.217 Y84.997 E0.019
G1 X49.012 Y85.443 E0.016
G1 X48.755 Y85.908 E0.018
G1 X48.464 Y86.352 E0.017
G1 X48.113 Y86.802 E0.019
G1 X47.785 Y87.166 E0.016
G1 X47.4 Y87.533 E0.018
G1 X46.957 Y87.892 E0.019
G1 X46.554 Y88.173 E0.016
G1 X46.098 Y88.444 E0.018
G1 X45.622 Y88.679 E0.018
G1 X45.13 Y88.876 E0.017
G1 X44.624 Y89.037 E0.018
G1 X44.106 Y89.158 E0.018
G1 X43.584 Y89.241 E0.017
G1 X43.093 Y89.28 E0.017
G1 X42.524 Y89.285 E0.019
G1 X41.993 Y89.247 E0.017
G1 X41.468 Y89.168 E0.018
G1 X40.989 Y89.06 E0.016
G1 X40.444 Y88.894 E0.019
G1 X39.95 Y88.698 E0.018
G1 X39.508 Y88.485 E0.016
G1 X39.014 Y88.2 E0.019
G1 X38.577 Y87.9 E0.018
G1 X38.194 Y87.591 E0.016
G1 X37.778 Y87.202 E0.019
G1 X37.419 Y86.811 E0.018
G1 X37.115 Y86.424 E0.016
G1 X36.798 Y85.951 E0.019
G1 X36.537 Y85.489 E0.018
G1 X36.313 Y85.008 E0.017
G1 X36.125 Y84.511 E0.018
G1 X35.976 Y84.002 E0.018
G1 X35.865 Y83.482 E0.017
G1 X35.795 Y82.956 E0.018
G1 X35.765 Y82.426 E0.018
G1 X35.774 Y81.896 E0.017
G1 X35.825 Y81.368 E0.018
G1 X35.914 Y80.844 E0.018
G1 X36.033 Y80.366 E0.016
G1 X36.212 Y79.826 E0.019
G1 X36.416 Y79.337 E0.018
G1 X36.639 Y78.899 E0.016
G1 X36.935 Y78.412 E0.019
G1 X37.222 Y78.012 E0.016
G1 X37.588 Y77.575 E0.019
G1 X37.96 Y77.197 E0.018
G1 X38.359 Y76.848 E0.018
G1 X38.753 Y76.552 E0.016
G1 X39.198 Y76.266 E0.018
G1 X39.665 Y76.013 E0.017
G1 X40.15 Y75.795 E0.018
G1 X40.686 Y75.604 E0.019
G1 X41.199 Y75.466 E0.017
G1 X41.721 Y75.367 E0.018
G1 X42.248 Y75.308 E0.018
G1 X42.739 Y75.289 E0.016
G1 X43.269 Y75.307 E0.018
G1 X43.835 Y75.371 E0.019
G1 X44.319 Y75.464 E0.016
G1 X44.83 Y75.601 E0.018
G1 X45.178 Y75.723 E0.012
G1 X47.341 Y71.656 E0.153
G1 X46.846 Y71.335 E0.02
G1 X46.298 Y70.939 E0.022
G1 X45.732 Y70.481 E0.025
G1 X45.153 Y69.955 E0.026
G1 X44.677 Y69.476 E0.022
G1 X44.191 Y68.932 E0.024
G1 X43.735 Y68.364 E0.024
G1 X43.312 Y67.771 E0.025
G1 X42.92 Y67.156 E0.024
G1 X42.539 Y66.472 E0.026
G1 X42.24 Y65.867 E0.022
G1 X41.953 Y65.197 E0.025
G1 X41.702 Y64.513 E0.024
G1 X41.489 Y63.816 E0.024
G1 X41.314 Y63.109 E0.024
G1 X41.177 Y62.393 E0.025
G1 X41.078 Y61.67 E0.024
G1 X41.019 Y60.944 E0.024
G1 X41 Y60.218 E0.024
G1 Y56.215 E0.133
G1 X38 E0.1
G1 Y62.411 E0.206
G1 X37.441 Y62.587 E0.02
G1 X24.707 Y44.403 E0.738
G1 X24.415 Y43.95 E0.018
G1 X24.155 Y43.474 E0.018
G1 X23.931 Y42.981 E0.018
G1 X23.745 Y42.471 E0.018
G1 X23.597 Y41.951 E0.018
G1 X23.488 Y41.419 E0.018
G1 X23.418 Y40.881 E0.018
G1 X23.389 Y40.339 E0.018
G1 X23.4 Y39.798 E0.018
G1 X23.451 Y39.258 E0.018
G1 X23.542 Y38.723 E0.018
G1 X23.673 Y38.197 E0.018
G1 X23.841 Y37.683 E0.018
G1 X24.048 Y37.181 E0.018
G1 X24.311 Y36.662 E0.02
G1 X24.57 Y36.231 E0.017
G1 X24.882 Y35.788 E0.018
G1 X25.227 Y35.369 E0.018
G1 X25.6 Y34.978 E0.018
G1 F2100 E-0.5
;rapid-dry
G0 X25.88 Y35.264 F3000
G1 F2100 E0.5
;bead-perimeter_outer
G1 X26.259 Y34.921 F720 E0.017
G1 X26.666 Y34.607 E0.017
G1 X27.093 Y34.323 E0.017
G1 X27.538 Y34.072 E0.017
G1 X28.003 Y33.855 E0.017
G1 X28.482 Y33.673 E0.017
G1 X28.973 Y33.527 E0.017
G1 X29.513 Y33.412 E0.018
G1 X29.982 Y33.346 E0.016
G1 X30.493 Y33.312 E0.017
G1 X31.006 Y33.317 E0.017
G1 X31.517 Y33.359 E0.017
G1 X32.022 Y33.438 E0.017
G1 X32.521 Y33.556 E0.017
G1 X33.046 Y33.722 E0.019
G1 X33.486 Y33.899 E0.015
G1 X33.947 Y34.123 E0.017
G1 X34.389 Y34.382 E0.017
G1 X34.843 Y34.694 E0.019
G1 X35.24 Y35.017 E0.017
G1 X35.614 Y35.369 E0.017
G1 X35.935 Y35.718 E0.016
G1 X36.254 Y36.119 E0.017
G1 X36.562 Y36.576 E0.018
G1 X36.816 Y37.02 E0.017
G1 X37.02 Y37.448 E0.016
G1 X37.208 Y37.925 E0.017
G1 X37.361 Y38.414 E0.017
G1 X37.475 Y38.914 E0.017
G1 X37.583 Y39.615 E0.024
G1 X41.4 E0.126
G1 Y35.218 E0.147
G1 X41.42 Y34.506 E0.023
G1 X41.484 Y33.746 E0.026
G1 X41.572 Y33.095 E0.022
G1 X41.706 Y32.399 E0.023
G1 X41.878 Y31.71 E0.024
G1 X42.086 Y31.032 E0.023
G1 X42.331 Y30.366 E0.024
G1 X42.611 Y29.715 E0.024
G1 X42.926 Y29.079 E0.023
G1 X43.275 Y28.461 E0.024
G1 X43.658 Y27.863 E0.023
G1 X44.071 Y27.287 E0.024
G1 X44.515 Y26.735 E0.024
G1 X44.989 Y26.207 E0.023
G1 X45.492 Y25.704 E0.024
G1 X46.02 Y25.23 E0.023
G1 X46.572 Y24.786 E0.024
G1 X47.148 Y24.373 E0.024
G1 X47.746 Y23.991 E0.023
G1 X48.411 Y23.617 E0.026
G1 X48.999 Y23.326 E0.021
G1 X49.651 Y23.046 E0.024
G1 X50.317 Y22.801 E0.024
G1 X50.995 Y22.593 E0.023
G1 X51.684 Y22.421 E0.024
G1 X52.38 Y22.287 E0.023
G1 X53.084 Y22.192 E0.024
G1 X53.791 Y22.135 E0.024
G1 X54.554 Y22.116 E0.025
G1 X55.209 Y22.135 E0.022
G1 X55.916 Y22.192 E0.023
G1 X56.62 Y22.287 E0.024
G1 X57.316 Y22.421 E0.024
G1 X58.005 Y22.593 E0.023
G1 X58.683 Y22.801 E0.024
G1 X59.349 Y23.046 E0.023
G1 X60.001 Y23.326 E0.024
G1 X60.636 Y23.641 E0.023
G1 X61.254 Y23.99 E0.024
G1 X61.852 Y24.373 E0.024
G1 X62.428 Y24.786 E0.023
G1 X62.98 Y25.23 E0.024
G1 X63.508 Y25.704 E0.023
G1 X64.011 Y26.207 E0.024
G1 X64.485 Y26.735 E0.024
G1 X64.928 Y27.287 E0.023
G1 X65.371 Y27.908 E0.026
G1 X65.725 Y28.461 E0.021
G1 X66.074 Y29.079 E0.024
G1 X66.389 Y29.715 E0.024
G1 X66.669 Y30.366 E0.023
G1 X66.93 Y31.083 E0.026
G1 X67.122 Y31.71 E0.021
G1 X67.294 Y32.399 E0.024
G1 X67.428 Y33.095 E0.024
G1 X67.523 Y33.799 E0.023
G1 X67.58 Y34.506 E0.024
G1 X67.6 Y35.218 E0.024
G1 Y39.615 E0.146
G1 X71.417 E0.127
G1 X71.525 Y38.913 E0.023
G1 X71.629 Y38.451 E0.016
G1 X71.779 Y37.962 E0.017
G1 X71.98 Y37.448 E0.018
G1 X72.202 Y36.987 E0.017
G1 X72.458 Y36.543 E0.018
G1 X72.746 Y36.119 E0.017
G1 X73.04 Y35.747 E0.015
G1 X73.414 Y35.342 E0.019
G1 X73.76 Y35.017 E0.015
G1 X74.157 Y34.694 E0.017
G1 X74.579 Y34.403 E0.018
G1 X75.054 Y34.123 E0.018
G1 X75.514 Y33.899 E0.017
G1 X75.954 Y33.722 E0.016
G1 X76.479 Y33.556 E0.018
G1 X76.978 Y33.438 E0.017
G1 X77.483 Y33.359 E0.017
G1 X77.956 Y33.319 E0.016
G1 X78.508 Y33.312 E0.018
G1 X79.018 Y33.346 E0.017
G1 X79.526 Y33.418 E0.017
G1 X80.026 Y33.527 E0.017
G1 X80.481 Y33.661 E0.016
G1 X80.996 Y33.855 E0.018
G1 X81.462 Y34.072 E0.017
G1 X81.907 Y34.323 E0.017
G1 X82.334 Y34.607 E0.018
G1 X82.741 Y34.921 E0.017
G1 X83.12 Y35.264 E0.017
G1 X83.448 Y35.607 E0.015
G1 X83.8 Y36.031 E0.019
G1 X84.094 Y36.449 E0.017
G1 X84.339 Y36.856 E0.016
G1 X84.588 Y37.347 E0.018
G1 X84.783 Y37.821 E0.017
G1 X84.943 Y38.307 E0.017
G1 X85.057 Y38.768 E0.016
G1 X85.153 Y39.311 E0.018
G1 X85.2 Y39.82 E0.017
G1 X85.211 Y40.333 E0.017
G1 X85.184 Y40.845 E0.017
G1 X85.118 Y41.353 E0.017
G1 X85.015 Y41.855 E0.017
G1 X84.875 Y42.347 E0.017
G1 X84.699 Y42.829 E0.017
G1 X84.487 Y43.296 E0.017
G1 X84.26 Y43.712 E0.016
G1 X83.961 Y44.18 E0.019
G1 X71.4 Y62.118 E0.728
G1 Y55.815 E0.21
G1 X67.6 E0.126
G1 Y60.212 E0.146
G1 X67.581 Y60.922 E0.024
G1 X67.524 Y61.626 E0.023
G1 X67.429 Y62.329 E0.024
G1 X67.296 Y63.023 E0.023
G1 X67.125 Y63.71 E0.024
G1 X66.918 Y64.385 E0.023
G1 X66.675 Y65.049 E0.024
G1 X66.396 Y65.699 E0.023
G1 X66.107 Y66.286 E0.022
G1 X65.736 Y66.95 E0.026
G1 X65.356 Y67.547 E0.023
G1 X64.945 Y68.122 E0.024
G1 X64.503 Y68.674 E0.023
G1 X64.031 Y69.202 E0.024
G1 X63.571 Y69.665 E0.021
G1 X63.008 Y70.177 E0.026
G1 X62.458 Y70.621 E0.023
G1 X61.928 Y71.005 E0.022
G1 X61.133 Y71.52 E0.031
G1 X63.63 Y76.215 E0.177
G1 X64.288 Y75.983 E0.024
G1 X64.771 Y75.854 E0.016
G1 X65.225 Y75.767 E0.016
G1 X65.723 Y75.71 E0.016
G1 X66.222 Y75.689 E0.017
G1 X66.722 Y75.708 E0.016
G1 X67.258 Y75.768 E0.018
G1 X67.711 Y75.856 E0.016
G1 X68.231 Y75.998 E0.018
G1 X68.7 Y76.167 E0.016
G1 X69.158 Y76.372 E0.017
G1 X69.565 Y76.591 E0.015
G1 X69.987 Y76.859 E0.017
G1 X70.389 Y77.159 E0.017
G1 X70.765 Y77.488 E0.016
G1 X71.142 Y77.873 E0.018
G1 X71.439 Y78.228 E0.016
G1 X71.731 Y78.633 E0.016
G1 X71.992 Y79.06 E0.017
G1 X72.22 Y79.505 E0.016
G1 X72.414 Y79.966 E0.017
G1 X72.583 Y80.477 E0.018
G1 X72.702 Y80.963 E0.017
G1 X72.783 Y81.457 E0.016
G1 X72.828 Y81.956 E0.017
G1 X72.835 Y82.418 E0.015
G1 X72.807 Y82.918 E0.017
G1 X72.741 Y83.414 E0.017
G1 X72.636 Y83.904 E0.016
G1 X72.495 Y84.383 E0.017
G1 X72.319 Y84.852 E0.017
G1 X72.088 Y85.339 E0.017
G1 X71.861 Y85.741 E0.016
G1 X71.584 Y86.158 E0.016
G1 X71.275 Y86.552 E0.017
G1 X70.937 Y86.921 E0.017
G1 X70.573 Y87.264 E0.016
G1 X70.184 Y87.578 E0.017
G1 X69.739 Y87.882 E0.018
G1 X69.339 Y88.114 E0.015
G1 X68.89 Y88.332 E0.017
G1 X68.424 Y88.516 E0.017
G1 X67.909 Y88.673 E0.018
G1 X67.458 Y88.774 E0.015
G1 X66.963 Y88.849 E0.017
G1 X66.425 Y88.885 E0.017
G1 X65.963 Y88.883 E0.016
G1 X65.464 Y88.843 E0.016
G1 X64.97 Y88.766 E0.017
G1 X64.482 Y88.651 E0.017
G1 X64.006 Y88.5 E0.016
G1 X63.542 Y88.313 E0.017
G1 X63.092 Y88.092 E0.017
G1 X62.662 Y87.837 E0.016
G1 X62.283 Y87.572 E0.016
G1 X61.864 Y87.233 E0.018
G1 X61.503 Y86.888 E0.016
G1 X61.193 Y86.544 E0.016
G1 X60.862 Y86.118 E0.018
G1 X60.587 Y85.702 E0.016
G1 X60.346 Y85.263 E0.017
G1 X60.153 Y84.843 E0.015
G1 X59.963 Y84.338 E0.018
G1 X59.826 Y83.858 E0.017
G1 X59.725 Y83.367 E0.016
G1 X59.662 Y82.871 E0.017
G1 X59.638 Y82.41 E0.015
G1 X59.651 Y81.871 E0.018
G1 X59.7 Y81.373 E0.017
